; Generated by 3DPrintForge native slicer
; Layers: 150, layer height: 0.2 mm
; Material: PLA, nozzle 215C, bed 60C
; estimated_time: 0
M140 S60
M104 S215
G28 ; home
M190 S60
M109 S215
G92 E0
G90
M82
M107
; --- prime line ---
G1 Z0.200 F7200
G1 X20 Y20 F7200
G1 X80 Y20 E1.9956 F1200
G92 E0
; --- layer 1/150 z=0.200 ---
;LAYER_CHANGE
;Z:0.200
G1 Z0.200 F7200
; FEATURE: Skirt
G1 E-1.5000 F7200
G0 X33.000 Y-3.000 F7200
G1 E0.0000 F7200
G1 X-3.000 Y-3.000 E1.1974 F1200
G1 X-3.000 Y33.000 E2.3947 F1200
G1 X33.000 Y33.000 E3.5921 F1200
G1 X33.000 Y-3.000 E4.7895 F1200
; FEATURE: Outer wall
G1 E3.2895 F7200
G0 X0.000 Y30.000 F7200
G1 E4.7895 F7200
G1 X30.000 Y30.000 E5.7873 F1200
G1 X30.000 Y0.000 E6.7851 F1200
G1 X0.000 Y0.000 E7.7829 F1200
G1 X0.000 Y30.000 E8.7807 F1200
; FEATURE: Inner wall
G1 E7.2807 F7200
G0 X0.400 Y29.600 F7200
G1 E8.7807 F7200
G1 X29.600 Y29.600 E9.7519 F1200
G1 X29.600 Y0.400 E10.7231 F1200
G1 X0.400 Y0.400 E11.6943 F1200
G1 X0.400 Y29.600 E12.6655 F1200
; FEATURE: Bottom surface
G0 X29.117 Y0.600 F7200
G1 X29.400 Y0.883 E12.6788 F1200
G0 X28.551 Y0.600 F7200
G1 X29.400 Y1.449 E12.7187 F1200
G0 X27.986 Y0.600 F7200
G1 X29.400 Y2.014 E12.7852 F1200
G0 X27.420 Y0.600 F7200
G1 X29.400 Y2.580 E12.8783 F1200
G0 X26.854 Y0.600 F7200
G1 X29.400 Y3.146 E12.9981 F1200
G0 X26.289 Y0.600 F7200
G1 X29.400 Y3.711 E13.1444 F1200
G0 X25.723 Y0.600 F7200
G1 X29.400 Y4.277 E13.3174 F1200
G0 X25.157 Y0.600 F7200
G1 X29.400 Y4.843 E13.5169 F1200
G0 X24.592 Y0.600 F7200
G1 X29.400 Y5.408 E13.7431 F1200
G0 X24.026 Y0.600 F7200
G1 X29.400 Y5.974 E13.9959 F1200
G0 X23.460 Y0.600 F7200
G1 X29.400 Y6.540 E14.2752 F1200
G0 X22.895 Y0.600 F7200
G1 X29.400 Y7.105 E14.5812 F1200
G0 X22.329 Y0.600 F7200
G1 X29.400 Y7.671 E14.9138 F1200
G0 X21.763 Y0.600 F7200
G1 X29.400 Y8.237 E15.2731 F1200
G0 X21.198 Y0.600 F7200
G1 X29.400 Y8.802 E15.6589 F1200
G0 X20.632 Y0.600 F7200
G1 X29.400 Y9.368 E16.0713 F1200
G0 X20.066 Y0.600 F7200
G1 X29.400 Y9.934 E16.5103 F1200
G0 X19.501 Y0.600 F7200
G1 X29.400 Y10.499 E16.9760 F1200
G0 X18.935 Y0.600 F7200
G1 X29.400 Y11.065 E17.4682 F1200
G0 X18.369 Y0.600 F7200
G1 X29.400 Y11.631 E17.9871 F1200
G0 X17.803 Y0.600 F7200
G1 X29.400 Y12.197 E18.5325 F1200
G0 X17.238 Y0.600 F7200
G1 X29.400 Y12.762 E19.1046 F1200
G0 X16.672 Y0.600 F7200
G1 X29.400 Y13.328 E19.7033 F1200
G0 X16.106 Y0.600 F7200
G1 X29.400 Y13.894 E20.3286 F1200
G0 X15.541 Y0.600 F7200
G1 X29.400 Y14.459 E20.9805 F1200
G0 X14.975 Y0.600 F7200
G1 X29.400 Y15.025 E21.6590 F1200
G0 X14.409 Y0.600 F7200
G1 X29.400 Y15.591 E22.3641 F1200
G0 X13.844 Y0.600 F7200
G1 X29.400 Y16.156 E23.0958 F1200
G0 X13.278 Y0.600 F7200
G1 X29.400 Y16.722 E23.8542 F1200
G0 X12.712 Y0.600 F7200
G1 X29.400 Y17.288 E24.6391 F1200
G0 X12.147 Y0.600 F7200
G1 X29.400 Y17.853 E25.4507 F1200
G0 X11.581 Y0.600 F7200
G1 X29.400 Y18.419 E26.2888 F1200
G0 X11.015 Y0.600 F7200
G1 X29.400 Y18.985 E27.1536 F1200
G0 X10.450 Y0.600 F7200
G1 X29.400 Y19.550 E28.0449 F1200
G0 X9.884 Y0.600 F7200
G1 X29.400 Y20.116 E28.9629 F1200
G0 X9.318 Y0.600 F7200
G1 X29.400 Y20.682 E29.9075 F1200
G0 X8.752 Y0.600 F7200
G1 X29.400 Y21.248 E30.8787 F1200
G0 X8.187 Y0.600 F7200
G1 X29.400 Y21.813 E31.8765 F1200
G0 X7.621 Y0.600 F7200
G1 X29.400 Y22.379 E32.9009 F1200
G0 X7.055 Y0.600 F7200
G1 X29.400 Y22.945 E33.9519 F1200
G0 X6.490 Y0.600 F7200
G1 X29.400 Y23.510 E35.0296 F1200
G0 X5.924 Y0.600 F7200
G1 X29.400 Y24.076 E36.1338 F1200
G0 X5.358 Y0.600 F7200
G1 X29.400 Y24.642 E37.2647 F1200
G0 X4.793 Y0.600 F7200
G1 X29.400 Y25.207 E38.4221 F1200
G0 X4.227 Y0.600 F7200
G1 X29.400 Y25.773 E39.6062 F1200
G0 X3.661 Y0.600 F7200
G1 X29.400 Y26.339 E40.8168 F1200
G0 X3.096 Y0.600 F7200
G1 X29.400 Y26.904 E42.0541 F1200
G0 X2.530 Y0.600 F7200
G1 X29.400 Y27.470 E43.3180 F1200
G0 X1.964 Y0.600 F7200
G1 X29.400 Y28.036 E44.6085 F1200
G0 X1.399 Y0.600 F7200
G1 X29.400 Y28.601 E45.9256 F1200
G0 X0.833 Y0.600 F7200
G1 X29.400 Y29.167 E47.2693 F1200
G0 X0.600 Y0.933 F7200
G1 X29.067 Y29.400 E48.6083 F1200
G0 X0.600 Y1.498 F7200
G1 X28.502 Y29.400 E49.9207 F1200
G0 X0.600 Y2.064 F7200
G1 X27.936 Y29.400 E51.2065 F1200
G0 X0.600 Y2.630 F7200
G1 X27.370 Y29.400 E52.4657 F1200
G0 X0.600 Y3.196 F7200
G1 X26.804 Y29.400 E53.6983 F1200
G0 X0.600 Y3.761 F7200
G1 X26.239 Y29.400 E54.9042 F1200
G0 X0.600 Y4.327 F7200
G1 X25.673 Y29.400 E56.0836 F1200
G0 X0.600 Y4.893 F7200
G1 X25.107 Y29.400 E57.2364 F1200
G0 X0.600 Y5.458 F7200
G1 X24.542 Y29.400 E58.3625 F1200
G0 X0.600 Y6.024 F7200
G1 X23.976 Y29.400 E59.4620 F1200
G0 X0.600 Y6.590 F7200
G1 X23.410 Y29.400 E60.5350 F1200
G0 X0.600 Y7.155 F7200
G1 X22.845 Y29.400 E61.5813 F1200
G0 X0.600 Y7.721 F7200
G1 X22.279 Y29.400 E62.6010 F1200
G0 X0.600 Y8.287 F7200
G1 X21.713 Y29.400 E63.5941 F1200
G0 X0.600 Y8.852 F7200
G1 X21.148 Y29.400 E64.5606 F1200
G0 X0.600 Y9.418 F7200
G1 X20.582 Y29.400 E65.5005 F1200
G0 X0.600 Y9.984 F7200
G1 X20.016 Y29.400 E66.4138 F1200
G0 X0.600 Y10.549 F7200
G1 X19.451 Y29.400 E67.3004 F1200
G0 X0.600 Y11.115 F7200
G1 X18.885 Y29.400 E68.1605 F1200
G0 X0.600 Y11.681 F7200
G1 X18.319 Y29.400 E68.9940 F1200
G0 X0.600 Y12.247 F7200
G1 X17.753 Y29.400 E69.8008 F1200
G0 X0.600 Y12.812 F7200
G1 X17.188 Y29.400 E70.5810 F1200
G0 X0.600 Y13.378 F7200
G1 X16.622 Y29.400 E71.3347 F1200
G0 X0.600 Y13.944 F7200
G1 X16.056 Y29.400 E72.0617 F1200
G0 X0.600 Y14.509 F7200
G1 X15.491 Y29.400 E72.7621 F1200
G0 X0.600 Y15.075 F7200
G1 X14.925 Y29.400 E73.4359 F1200
G0 X0.600 Y15.641 F7200
G1 X14.359 Y29.400 E74.0831 F1200
G0 X0.600 Y16.206 F7200
G1 X13.794 Y29.400 E74.7037 F1200
G0 X0.600 Y16.772 F7200
G1 X13.228 Y29.400 E75.2977 F1200
G0 X0.600 Y17.338 F7200
G1 X12.662 Y29.400 E75.8651 F1200
G0 X0.600 Y17.903 F7200
G1 X12.097 Y29.400 E76.4058 F1200
G0 X0.600 Y18.469 F7200
G1 X11.531 Y29.400 E76.9200 F1200
G0 X0.600 Y19.035 F7200
G1 X10.965 Y29.400 E77.4075 F1200
G0 X0.600 Y19.600 F7200
G1 X10.400 Y29.400 E77.8685 F1200
G0 X0.600 Y20.166 F7200
G1 X9.834 Y29.400 E78.3028 F1200
G0 X0.600 Y20.732 F7200
G1 X9.268 Y29.400 E78.7106 F1200
G0 X0.600 Y21.297 F7200
G1 X8.703 Y29.400 E79.0917 F1200
G0 X0.600 Y21.863 F7200
G1 X8.137 Y29.400 E79.4462 F1200
G0 X0.600 Y22.429 F7200
G1 X7.571 Y29.400 E79.7741 F1200
G0 X0.600 Y22.995 F7200
G1 X7.005 Y29.400 E80.0754 F1200
G0 X0.600 Y23.560 F7200
G1 X6.440 Y29.400 E80.3501 F1200
G0 X0.600 Y24.126 F7200
G1 X5.874 Y29.400 E80.5981 F1200
G0 X0.600 Y24.692 F7200
G1 X5.308 Y29.400 E80.8196 F1200
G0 X0.600 Y25.257 F7200
G1 X4.743 Y29.400 E81.0145 F1200
G0 X0.600 Y25.823 F7200
G1 X4.177 Y29.400 E81.1827 F1200
G0 X0.600 Y26.389 F7200
G1 X3.611 Y29.400 E81.3244 F1200
G0 X0.600 Y26.954 F7200
G1 X3.046 Y29.400 E81.4394 F1200
G0 X0.600 Y27.520 F7200
G1 X2.480 Y29.400 E81.5278 F1200
G0 X0.600 Y28.086 F7200
G1 X1.914 Y29.400 E81.5897 F1200
G0 X0.600 Y28.651 F7200
G1 X1.349 Y29.400 E81.6249 F1200
G0 X0.600 Y29.217 F7200
G1 X0.783 Y29.400 E81.6335 F1200
; --- layer 2/150 z=0.400 ---
;LAYER_CHANGE
;Z:0.400
G1 Z0.400 F7200
M106 S255
; FEATURE: Outer wall
G1 E80.1335 F7200
G0 X0.000 Y30.000 F7200
G1 E81.6335 F7200
G1 X30.000 Y30.000 E82.6313 F3600
G1 X30.000 Y0.000 E83.6291 F3600
G1 X0.000 Y0.000 E84.6269 F3600
G1 X0.000 Y30.000 E85.6247 F3600
; FEATURE: Inner wall
G1 E84.1247 F7200
G0 X0.400 Y29.600 F7200
G1 E85.6247 F7200
G1 X29.600 Y29.600 E86.5959 F3600
G1 X29.600 Y0.400 E87.5671 F3600
G1 X0.400 Y0.400 E88.5383 F3600
G1 X0.400 Y29.600 E89.5095 F3600
; FEATURE: Internal solid infill
G0 X29.400 Y29.117 F7200
G1 X29.117 Y29.400 E89.5228 F3600
G1 X28.551 Y29.400 E89.5416 F3600
G1 X29.400 Y28.551 E89.5815 F3600
G1 X29.400 Y27.986 E89.6003 F3600
G1 X27.986 Y29.400 E89.6668 F3600
G1 X27.420 Y29.400 E89.6856 F3600
G1 X29.400 Y27.420 E89.7788 F3600
G1 X29.400 Y26.854 E89.7976 F3600
G1 X26.854 Y29.400 E89.9173 F3600
G1 X26.289 Y29.400 E89.9361 F3600
G1 X29.400 Y26.289 E90.0825 F3600
G1 X29.400 Y25.723 E90.1013 F3600
G1 X25.723 Y29.400 E90.2743 F3600
G1 X25.157 Y29.400 E90.2931 F3600
G1 X29.400 Y25.157 E90.4926 F3600
G1 X29.400 Y24.592 E90.5114 F3600
G1 X24.592 Y29.400 E90.7376 F3600
G1 X24.026 Y29.400 E90.7564 F3600
G1 X29.400 Y24.026 E91.0092 F3600
G1 X29.400 Y23.460 E91.0280 F3600
G1 X23.460 Y29.400 E91.3074 F3600
G1 X22.895 Y29.400 E91.3262 F3600
G1 X29.400 Y22.895 E91.6322 F3600
G1 X29.400 Y22.329 E91.6510 F3600
G1 X22.329 Y29.400 E91.9836 F3600
G1 X21.763 Y29.400 E92.0024 F3600
G1 X29.400 Y21.763 E92.3617 F3600
G1 X29.400 Y21.198 E92.3805 F3600
G1 X21.198 Y29.400 E92.7663 F3600
G1 X20.632 Y29.400 E92.7851 F3600
G1 X29.400 Y20.632 E93.1975 F3600
G1 X29.400 Y20.066 E93.2163 F3600
G1 X20.066 Y29.400 E93.6554 F3600
G1 X19.501 Y29.400 E93.6742 F3600
G1 X29.400 Y19.501 E94.1398 F3600
G1 X29.400 Y18.935 E94.1586 F3600
G1 X18.935 Y29.400 E94.6509 F3600
G1 X18.369 Y29.400 E94.6697 F3600
G1 X29.400 Y18.369 E95.1886 F3600
G1 X29.400 Y17.803 E95.2074 F3600
G1 X17.803 Y29.400 E95.7529 F3600
G1 X17.238 Y29.400 E95.7717 F3600
G1 X29.400 Y17.238 E96.3437 F3600
G1 X29.400 Y16.672 E96.3626 F3600
G1 X16.672 Y29.400 E96.9612 F3600
G1 X16.106 Y29.400 E96.9801 F3600
G1 X29.400 Y16.106 E97.6053 F3600
G1 X29.400 Y15.541 E97.6242 F3600
G1 X15.541 Y29.400 E98.2761 F3600
G1 X14.975 Y29.400 E98.2949 F3600
G1 X29.400 Y14.975 E98.9734 F3600
G1 X29.400 Y14.409 E98.9922 F3600
G1 X14.409 Y29.400 E99.6973 F3600
G1 X13.844 Y29.400 E99.7161 F3600
G1 X29.400 Y13.844 E100.4478 F3600
G1 X29.400 Y13.278 E100.4667 F3600
G1 X13.278 Y29.400 E101.2250 F3600
G1 X12.712 Y29.400 E101.2438 F3600
G1 X29.400 Y12.712 E102.0287 F3600
G1 X29.400 Y12.147 E102.0476 F3600
G1 X12.147 Y29.400 E102.8591 F3600
G1 X11.581 Y29.400 E102.8779 F3600
G1 X29.400 Y11.581 E103.7161 F3600
G1 X29.400 Y11.015 E103.7349 F3600
G1 X11.015 Y29.400 E104.5997 F3600
G1 X10.450 Y29.400 E104.6185 F3600
G1 X29.400 Y10.450 E105.5098 F3600
G1 X29.400 Y9.884 E105.5287 F3600
G1 X9.884 Y29.400 E106.4466 F3600
G1 X9.318 Y29.400 E106.4655 F3600
G1 X29.400 Y9.318 E107.4100 F3600
G1 X29.400 Y8.752 E107.4289 F3600
G1 X8.752 Y29.400 E108.4000 F3600
G1 X8.187 Y29.400 E108.4189 F3600
G1 X29.400 Y8.187 E109.4167 F3600
G1 X29.400 Y7.621 E109.4355 F3600
G1 X7.621 Y29.400 E110.4599 F3600
G1 X7.055 Y29.400 E110.4787 F3600
G1 X29.400 Y7.055 E111.5297 F3600
G1 X29.400 Y6.490 E111.5485 F3600
G1 X6.490 Y29.400 E112.6262 F3600
G1 X5.924 Y29.400 E112.6450 F3600
G1 X29.400 Y5.924 E113.7492 F3600
G1 X29.400 Y5.358 E113.7680 F3600
G1 X5.358 Y29.400 E114.8989 F3600
G1 X4.793 Y29.400 E114.9177 F3600
G1 X29.400 Y4.793 E116.0752 F3600
G1 X29.400 Y4.227 E116.0940 F3600
G1 X4.227 Y29.400 E117.2780 F3600
G1 X3.661 Y29.400 E117.2968 F3600
G1 X29.400 Y3.661 E118.5075 F3600
G1 X29.400 Y3.096 E118.5263 F3600
G1 X3.096 Y29.400 E119.7636 F3600
G1 X2.530 Y29.400 E119.7824 F3600
G1 X29.400 Y2.530 E121.0463 F3600
G1 X29.400 Y1.964 E121.0651 F3600
G1 X1.964 Y29.400 E122.3556 F3600
G1 X1.399 Y29.400 E122.3744 F3600
G1 X29.400 Y1.399 E123.6915 F3600
G1 X29.400 Y0.833 E123.7103 F3600
G1 X0.833 Y29.400 E125.0541 F3600
G1 X0.600 Y29.067 E125.0676 F3600
G1 X29.067 Y0.600 E126.4066 F3600
G1 X28.502 Y0.600 E126.4254 F3600
G1 X0.600 Y28.502 E127.7378 F3600
G1 X0.600 Y27.936 E127.7566 F3600
G1 X27.936 Y0.600 E129.0424 F3600
G1 X27.370 Y0.600 E129.0612 F3600
G1 X0.600 Y27.370 E130.3204 F3600
G1 X0.600 Y26.804 E130.3392 F3600
G1 X26.804 Y0.600 E131.5718 F3600
G1 X26.239 Y0.600 E131.5906 F3600
G1 X0.600 Y26.239 E132.7966 F3600
G1 X0.600 Y25.673 E132.8154 F3600
G1 X25.673 Y0.600 E133.9947 F3600
G1 X25.107 Y0.600 E134.0136 F3600
G1 X0.600 Y25.107 E135.1663 F3600
G1 X0.600 Y24.542 E135.1851 F3600
G1 X24.542 Y0.600 E136.3113 F3600
G1 X23.976 Y0.600 E136.3301 F3600
G1 X0.600 Y23.976 E137.4296 F3600
G1 X0.600 Y23.410 E137.4484 F3600
G1 X23.410 Y0.600 E138.5214 F3600
G1 X22.845 Y0.600 E138.5402 F3600
G1 X0.600 Y22.845 E139.5865 F3600
G1 X0.600 Y22.279 E139.6053 F3600
G1 X22.279 Y0.600 E140.6250 F3600
G1 X21.713 Y0.600 E140.6438 F3600
G1 X0.600 Y21.713 E141.6370 F3600
G1 X0.600 Y21.148 E141.6558 F3600
G1 X21.148 Y0.600 E142.6223 F3600
G1 X20.582 Y0.600 E142.6411 F3600
G1 X0.600 Y20.582 E143.5810 F3600
G1 X0.600 Y20.016 E143.5998 F3600
G1 X20.016 Y0.600 E144.5131 F3600
G1 X19.451 Y0.600 E144.5319 F3600
G1 X0.600 Y19.451 E145.4185 F3600
G1 X0.600 Y18.885 E145.4374 F3600
G1 X18.885 Y0.600 E146.2974 F3600
G1 X18.319 Y0.600 E146.3162 F3600
G1 X0.600 Y18.319 E147.1497 F3600
G1 X0.600 Y17.753 E147.1685 F3600
G1 X17.753 Y0.600 E147.9754 F3600
G1 X17.188 Y0.600 E147.9942 F3600
G1 X0.600 Y17.188 E148.7744 F3600
G1 X0.600 Y16.622 E148.7932 F3600
G1 X16.622 Y0.600 E149.5469 F3600
G1 X16.056 Y0.600 E149.5657 F3600
G1 X0.600 Y16.056 E150.2927 F3600
G1 X0.600 Y15.491 E150.3115 F3600
G1 X15.491 Y0.600 E151.0119 F3600
G1 X14.925 Y0.600 E151.0307 F3600
G1 X0.600 Y14.925 E151.7046 F3600
G1 X0.600 Y14.359 E151.7234 F3600
G1 X14.359 Y0.600 E152.3706 F3600
G1 X13.794 Y0.600 E152.3894 F3600
G1 X0.600 Y13.794 E153.0100 F3600
G1 X0.600 Y13.228 E153.0288 F3600
G1 X13.228 Y0.600 E153.6228 F3600
G1 X12.662 Y0.600 E153.6416 F3600
G1 X0.600 Y12.662 E154.2090 F3600
G1 X0.600 Y12.097 E154.2278 F3600
G1 X12.097 Y0.600 E154.7685 F3600
G1 X11.531 Y0.600 E154.7874 F3600
G1 X0.600 Y11.531 E155.3015 F3600
G1 X0.600 Y10.965 E155.3203 F3600
G1 X10.965 Y0.600 E155.8079 F3600
G1 X10.400 Y0.600 E155.8267 F3600
G1 X0.600 Y10.400 E156.2876 F3600
G1 X0.600 Y9.834 E156.3064 F3600
G1 X9.834 Y0.600 E156.7408 F3600
G1 X9.268 Y0.600 E156.7596 F3600
G1 X0.600 Y9.268 E157.1673 F3600
G1 X0.600 Y8.703 E157.1861 F3600
G1 X8.703 Y0.600 E157.5673 F3600
G1 X8.137 Y0.600 E157.5861 F3600
G1 X0.600 Y8.137 E157.9406 F3600
G1 X0.600 Y7.571 E157.9594 F3600
G1 X7.571 Y0.600 E158.2873 F3600
G1 X7.005 Y0.600 E158.3061 F3600
G1 X0.600 Y7.005 E158.6074 F3600
G1 X0.600 Y6.440 E158.6262 F3600
G1 X6.440 Y0.600 E158.9009 F3600
G1 X5.874 Y0.600 E158.9197 F3600
G1 X0.600 Y5.874 E159.1678 F3600
G1 X0.600 Y5.308 E159.1866 F3600
G1 X5.308 Y0.600 E159.4081 F3600
G1 X4.743 Y0.600 E159.4269 F3600
G1 X0.600 Y4.743 E159.6218 F3600
G1 X0.600 Y4.177 E159.6406 F3600
G1 X4.177 Y0.600 E159.8088 F3600
G1 X3.611 Y0.600 E159.8276 F3600
G1 X0.600 Y3.611 E159.9693 F3600
G1 X0.600 Y3.046 E159.9881 F3600
G1 X3.046 Y0.600 E160.1031 F3600
G1 X2.480 Y0.600 E160.1220 F3600
G1 X0.600 Y2.480 E160.2104 F3600
G1 X0.600 Y1.914 E160.2292 F3600
G1 X1.914 Y0.600 E160.2910 F3600
G1 X1.349 Y0.600 E160.3098 F3600
G1 X0.600 Y1.349 E160.3450 F3600
G1 X0.600 Y0.783 E160.3639 F3600
G1 X0.783 Y0.600 E160.3725 F3600
; --- layer 3/150 z=0.600 ---
;LAYER_CHANGE
;Z:0.600
G1 Z0.600 F7200
; FEATURE: Outer wall
G1 E158.8725 F7200
G0 X0.000 Y30.000 F7200
G1 E160.3725 F7200
G1 X30.000 Y30.000 E161.3703 F3600
G1 X30.000 Y0.000 E162.3681 F3600
G1 X0.000 Y0.000 E163.3659 F3600
G1 X0.000 Y30.000 E164.3637 F3600
; FEATURE: Inner wall
G1 E162.8637 F7200
G0 X0.400 Y29.600 F7200
G1 E164.3637 F7200
G1 X29.600 Y29.600 E165.3349 F3600
G1 X29.600 Y0.400 E166.3061 F3600
G1 X0.400 Y0.400 E167.2773 F3600
G1 X0.400 Y29.600 E168.2485 F3600
; FEATURE: Internal solid infill
G0 X29.117 Y0.600 F7200
G1 X29.400 Y0.883 E168.2618 F3600
G1 X29.400 Y1.449 E168.2806 F3600
G1 X28.551 Y0.600 E168.3205 F3600
G1 X27.986 Y0.600 E168.3393 F3600
G1 X29.400 Y2.014 E168.4058 F3600
G1 X29.400 Y2.580 E168.4246 F3600
G1 X27.420 Y0.600 E168.5178 F3600
G1 X26.854 Y0.600 E168.5366 F3600
G1 X29.400 Y3.146 E168.6563 F3600
G1 X29.400 Y3.711 E168.6751 F3600
G1 X26.289 Y0.600 E168.8215 F3600
G1 X25.723 Y0.600 E168.8403 F3600
G1 X29.400 Y4.277 E169.0133 F3600
G1 X29.400 Y4.843 E169.0321 F3600
G1 X25.157 Y0.600 E169.2316 F3600
G1 X24.592 Y0.600 E169.2504 F3600
G1 X29.400 Y5.408 E169.4766 F3600
G1 X29.400 Y5.974 E169.4954 F3600
G1 X24.026 Y0.600 E169.7482 F3600
G1 X23.460 Y0.600 E169.7670 F3600
G1 X29.400 Y6.540 E170.0464 F3600
G1 X29.400 Y7.105 E170.0652 F3600
G1 X22.895 Y0.600 E170.3712 F3600
G1 X22.329 Y0.600 E170.3900 F3600
G1 X29.400 Y7.671 E170.7226 F3600
G1 X29.400 Y8.237 E170.7414 F3600
G1 X21.763 Y0.600 E171.1007 F3600
G1 X21.198 Y0.600 E171.1195 F3600
G1 X29.400 Y8.802 E171.5053 F3600
G1 X29.400 Y9.368 E171.5241 F3600
G1 X20.632 Y0.600 E171.9365 F3600
G1 X20.066 Y0.600 E171.9553 F3600
G1 X29.400 Y9.934 E172.3944 F3600
