; Generated by 3DPrintForge native slicer
; Layers: 150, layer height: 0.2 mm
; Material: PLA, nozzle 215C, bed 60C
; estimated_time: 0
M140 S60
M104 S215
G28 ; home
M190 S60
M109 S215
G92 E0
G90
M82
M107
; --- prime line ---
G1 Z0.200 F7200
G1 X20 Y20 F7200
G1 X80 Y20 E1.9956 F1200
G92 E0
; --- layer 1/150 z=0.200 ---
;LAYER_CHANGE
;Z:0.200
G1 Z0.200 F7200
; FEATURE: Skirt
G1 E-1.5000 F7200
G0 X15.004 Y-3.002 F7200
G1 E0.0000 F7200
G1 X13.827 Y-2.963 E0.0392 F1200
G1 X12.654 Y-2.848 E0.0784 F1200
G1 X11.492 Y-2.656 E0.1175 F1200
G1 X10.345 Y-2.389 E0.1567 F1200
G1 X9.217 Y-2.047 E0.1959 F1200
G1 X8.115 Y-1.633 E0.2351 F1200
G1 X7.042 Y-1.147 E0.2743 F1200
G1 X6.003 Y-0.592 E0.3134 F1200
G1 X5.002 Y0.030 E0.3526 F1200
G1 X4.045 Y0.716 E0.3918 F1200
G1 X3.134 Y1.463 E0.4310 F1200
G1 X2.274 Y2.268 E0.4702 F1200
G1 X1.468 Y3.128 E0.5093 F1200
G1 X0.721 Y4.038 E0.5485 F1200
G1 X0.034 Y4.996 E0.5877 F1200
G1 X-0.588 Y5.996 E0.6269 F1200
G1 X-1.143 Y7.035 E0.6661 F1200
G1 X-1.630 Y8.108 E0.7052 F1200
G1 X-2.045 Y9.210 E0.7444 F1200
G1 X-2.387 Y10.337 E0.7836 F1200
G1 X-2.655 Y11.484 E0.8228 F1200
G1 X-2.847 Y12.646 E0.8620 F1200
G1 X-2.963 Y13.819 E0.9011 F1200
G1 X-3.002 Y14.996 E0.9403 F1200
G1 X-2.963 Y16.173 E0.9795 F1200
G1 X-2.848 Y17.346 E1.0187 F1200
G1 X-2.656 Y18.508 E1.0579 F1200
G1 X-2.389 Y19.655 E1.0970 F1200
G1 X-2.047 Y20.783 E1.1362 F1200
G1 X-1.633 Y21.885 E1.1754 F1200
G1 X-1.147 Y22.958 E1.2146 F1200
G1 X-0.592 Y23.997 E1.2538 F1200
G1 X0.030 Y24.998 E1.2929 F1200
G1 X0.716 Y25.956 E1.3321 F1200
G1 X1.463 Y26.866 E1.3713 F1200
G1 X2.268 Y27.726 E1.4105 F1200
G1 X3.128 Y28.532 E1.4497 F1200
G1 X4.038 Y29.279 E1.4888 F1200
G1 X4.996 Y29.966 E1.5280 F1200
G1 X5.996 Y30.588 E1.5672 F1200
G1 X7.035 Y31.143 E1.6064 F1200
G1 X8.108 Y31.630 E1.6456 F1200
G1 X9.210 Y32.045 E1.6847 F1200
G1 X10.337 Y32.387 E1.7239 F1200
G1 X11.484 Y32.655 E1.7631 F1200
G1 X12.646 Y32.847 E1.8023 F1200
G1 X13.819 Y32.963 E1.8415 F1200
G1 X14.996 Y33.002 E1.8806 F1200
G1 X16.173 Y32.963 E1.9198 F1200
G1 X17.346 Y32.848 E1.9590 F1200
G1 X18.508 Y32.656 E1.9982 F1200
G1 X19.655 Y32.389 E2.0374 F1200
G1 X20.783 Y32.047 E2.0765 F1200
G1 X21.885 Y31.633 E2.1157 F1200
G1 X22.958 Y31.147 E2.1549 F1200
G1 X23.997 Y30.592 E2.1941 F1200
G1 X24.998 Y29.970 E2.2333 F1200
G1 X25.956 Y29.284 E2.2724 F1200
G1 X26.866 Y28.537 E2.3116 F1200
G1 X27.726 Y27.732 E2.3508 F1200
G1 X28.532 Y26.872 E2.3900 F1200
G1 X29.279 Y25.962 E2.4292 F1200
G1 X29.966 Y25.004 E2.4683 F1200
G1 X30.588 Y24.004 E2.5075 F1200
G1 X31.143 Y22.965 E2.5467 F1200
G1 X31.630 Y21.892 E2.5859 F1200
G1 X32.045 Y20.790 E2.6251 F1200
G1 X32.387 Y19.663 E2.6642 F1200
G1 X32.655 Y18.516 E2.7034 F1200
G1 X32.847 Y17.354 E2.7426 F1200
G1 X32.963 Y16.178 E2.7819 F1200
G1 X33.001 Y15.004 E2.8210 F1200
G1 X32.963 Y13.827 E2.8601 F1200
G1 X32.848 Y12.654 E2.8993 F1200
G1 X32.656 Y11.492 E2.9385 F1200
G1 X32.389 Y10.345 E2.9777 F1200
G1 X32.047 Y9.217 E3.0169 F1200
G1 X31.633 Y8.115 E3.0560 F1200
G1 X31.147 Y7.042 E3.0952 F1200
G1 X30.592 Y6.003 E3.1344 F1200
G1 X29.970 Y5.002 E3.1736 F1200
G1 X29.284 Y4.045 E3.2128 F1200
G1 X28.537 Y3.134 E3.2519 F1200
G1 X27.732 Y2.274 E3.2911 F1200
G1 X26.872 Y1.468 E3.3303 F1200
G1 X25.962 Y0.721 E3.3695 F1200
G1 X25.004 Y0.034 E3.4087 F1200
G1 X24.004 Y-0.588 E3.4478 F1200
G1 X22.965 Y-1.143 E3.4870 F1200
G1 X21.892 Y-1.630 E3.5262 F1200
G1 X20.790 Y-2.045 E3.5654 F1200
G1 X19.663 Y-2.387 E3.6046 F1200
G1 X18.516 Y-2.655 E3.6437 F1200
G1 X17.354 Y-2.847 E3.6829 F1200
G1 X16.181 Y-2.963 E3.7221 F1200
G1 X15.004 Y-3.002 E3.7613 F1200
; FEATURE: Outer wall
G1 E2.2613 F7200
G0 X14.997 Y30.000 F7200
G1 E3.7613 F7200
G1 X15.978 Y29.968 E3.7939 F1200
G1 X16.955 Y29.872 E3.8266 F1200
G1 X17.923 Y29.712 E3.8592 F1200
G1 X18.879 Y29.490 E3.8919 F1200
G1 X19.818 Y29.205 E3.9245 F1200
G1 X20.737 Y28.859 E3.9572 F1200
G1 X21.631 Y28.454 E3.9898 F1200
G1 X22.497 Y27.992 E4.0225 F1200
G1 X23.331 Y27.474 E4.0551 F1200
G1 X24.129 Y26.902 E4.0877 F1200
G1 X24.888 Y26.280 E4.1204 F1200
G1 X25.604 Y25.609 E4.1530 F1200
G1 X26.275 Y24.893 E4.1857 F1200
G1 X26.898 Y24.134 E4.2183 F1200
G1 X27.470 Y23.336 E4.2510 F1200
G1 X27.989 Y22.503 E4.2836 F1200
G1 X28.452 Y21.637 E4.3163 F1200
G1 X28.857 Y20.743 E4.3489 F1200
G1 X29.203 Y19.825 E4.3816 F1200
G1 X29.488 Y18.885 E4.4142 F1200
G1 X29.711 Y17.930 E4.4469 F1200
G1 X29.871 Y16.961 E4.4795 F1200
G1 X29.968 Y15.981 E4.5123 F1200
G1 X30.000 Y15.003 E4.5448 F1200
G1 X29.968 Y14.022 E4.5774 F1200
G1 X29.872 Y13.045 E4.6101 F1200
G1 X29.712 Y12.077 E4.6427 F1200
G1 X29.490 Y11.121 E4.6754 F1200
G1 X29.205 Y10.182 E4.7080 F1200
G1 X28.859 Y9.263 E4.7407 F1200
G1 X28.454 Y8.369 E4.7733 F1200
G1 X27.992 Y7.503 E4.8060 F1200
G1 X27.474 Y6.669 E4.8386 F1200
G1 X26.902 Y5.871 E4.8713 F1200
G1 X26.280 Y5.112 E4.9039 F1200
G1 X25.609 Y4.396 E4.9366 F1200
G1 X24.893 Y3.725 E4.9692 F1200
G1 X24.134 Y3.102 E5.0019 F1200
G1 X23.336 Y2.530 E5.0345 F1200
G1 X22.503 Y2.011 E5.0672 F1200
G1 X21.637 Y1.548 E5.0998 F1200
G1 X20.743 Y1.143 E5.1324 F1200
G1 X19.825 Y0.797 E5.1651 F1200
G1 X18.885 Y0.512 E5.1977 F1200
G1 X17.930 Y0.289 E5.2304 F1200
G1 X16.961 Y0.129 E5.2630 F1200
G1 X15.984 Y0.032 E5.2957 F1200
G1 X15.003 Y0.000 E5.3283 F1200
G1 X14.022 Y0.032 E5.3610 F1200
G1 X13.045 Y0.128 E5.3936 F1200
G1 X12.077 Y0.288 E5.4263 F1200
G1 X11.121 Y0.510 E5.4589 F1200
G1 X10.182 Y0.795 E5.4916 F1200
G1 X9.263 Y1.141 E5.5242 F1200
G1 X8.369 Y1.546 E5.5569 F1200
G1 X7.503 Y2.008 E5.5895 F1200
G1 X6.669 Y2.526 E5.6222 F1200
G1 X5.871 Y3.098 E5.6548 F1200
G1 X5.112 Y3.720 E5.6874 F1200
G1 X4.396 Y4.391 E5.7201 F1200
G1 X3.725 Y5.107 E5.7527 F1200
G1 X3.102 Y5.866 E5.7854 F1200
G1 X2.530 Y6.664 E5.8180 F1200
G1 X2.011 Y7.497 E5.8507 F1200
G1 X1.548 Y8.363 E5.8833 F1200
G1 X1.143 Y9.257 E5.9160 F1200
G1 X0.797 Y10.175 E5.9486 F1200
G1 X0.512 Y11.115 E5.9813 F1200
G1 X0.289 Y12.070 E6.0139 F1200
G1 X0.129 Y13.039 E6.0466 F1200
G1 X0.032 Y14.016 E6.0792 F1200
G1 X0.000 Y14.997 E6.1119 F1200
G1 X0.032 Y15.978 E6.1445 F1200
G1 X0.128 Y16.955 E6.1772 F1200
G1 X0.288 Y17.923 E6.2098 F1200
G1 X0.510 Y18.879 E6.2424 F1200
G1 X0.795 Y19.818 E6.2751 F1200
G1 X1.141 Y20.737 E6.3077 F1200
G1 X1.546 Y21.631 E6.3404 F1200
G1 X2.008 Y22.497 E6.3730 F1200
G1 X2.526 Y23.331 E6.4057 F1200
G1 X3.098 Y24.129 E6.4383 F1200
G1 X3.720 Y24.888 E6.4710 F1200
G1 X4.391 Y25.604 E6.5036 F1200
G1 X5.107 Y26.275 E6.5363 F1200
G1 X5.866 Y26.898 E6.5689 F1200
G1 X6.664 Y27.470 E6.6016 F1200
G1 X7.497 Y27.989 E6.6342 F1200
G1 X8.363 Y28.452 E6.6669 F1200
G1 X9.257 Y28.857 E6.6995 F1200
G1 X10.175 Y29.203 E6.7322 F1200
G1 X11.115 Y29.488 E6.7648 F1200
G1 X12.070 Y29.711 E6.7974 F1200
G1 X13.039 Y29.871 E6.8301 F1200
G1 X14.016 Y29.968 E6.8627 F1200
G1 X14.997 Y30.000 E6.8954 F1200
; FEATURE: Inner wall
G1 E5.3954 F7200
G0 X14.997 Y29.600 F7200
G1 E6.8954 F7200
G1 X15.952 Y29.569 E6.9272 F1200
G1 X16.902 Y29.475 E6.9589 F1200
G1 X17.845 Y29.320 E6.9907 F1200
G1 X18.776 Y29.103 E7.0225 F1200
G1 X19.690 Y28.826 E7.0543 F1200
G1 X20.584 Y28.490 E7.0860 F1200
G1 X21.454 Y28.095 E7.1178 F1200
G1 X22.297 Y27.645 E7.1496 F1200
G1 X23.108 Y27.141 E7.1814 F1200
G1 X23.885 Y26.585 E7.2131 F1200
G1 X24.624 Y25.979 E7.2449 F1200
G1 X25.321 Y25.326 E7.2767 F1200
G1 X25.975 Y24.629 E7.3085 F1200
G1 X26.581 Y23.890 E7.3403 F1200
G1 X27.137 Y23.114 E7.3720 F1200
G1 X27.642 Y22.303 E7.4038 F1200
G1 X28.093 Y21.460 E7.4356 F1200
G1 X28.487 Y20.590 E7.4674 F1200
G1 X28.824 Y19.696 E7.4991 F1200
G1 X29.101 Y18.782 E7.5309 F1200
G1 X29.319 Y17.851 E7.5627 F1200
G1 X29.474 Y16.909 E7.5945 F1200
G1 X29.569 Y15.955 E7.6263 F1200
G1 X29.600 Y15.003 E7.6580 F1200
G1 X29.569 Y14.048 E7.6898 F1200
G1 X29.475 Y13.098 E7.7216 F1200
G1 X29.320 Y12.155 E7.7533 F1200
G1 X29.103 Y11.224 E7.7851 F1200
G1 X28.826 Y10.310 E7.8169 F1200
G1 X28.490 Y9.416 E7.8487 F1200
G1 X28.095 Y8.546 E7.8804 F1200
G1 X27.645 Y7.703 E7.9122 F1200
G1 X27.141 Y6.891 E7.9440 F1200
G1 X26.585 Y6.115 E7.9758 F1200
G1 X25.979 Y5.376 E8.0075 F1200
G1 X25.326 Y4.679 E8.0393 F1200
G1 X24.629 Y4.025 E8.0711 F1200
G1 X23.890 Y3.419 E8.1029 F1200
G1 X23.114 Y2.863 E8.1346 F1200
G1 X22.303 Y2.358 E8.1664 F1200
G1 X21.460 Y1.907 E8.1982 F1200
G1 X20.590 Y1.513 E8.2300 F1200
G1 X19.696 Y1.176 E8.2618 F1200
G1 X18.782 Y0.899 E8.2935 F1200
G1 X17.851 Y0.681 E8.3253 F1200
G1 X16.909 Y0.526 E8.3571 F1200
G1 X15.958 Y0.432 E8.3889 F1200
G1 X15.003 Y0.400 E8.4206 F1200
G1 X14.048 Y0.431 E8.4524 F1200
G1 X13.098 Y0.525 E8.4842 F1200
G1 X12.155 Y0.680 E8.5160 F1200
G1 X11.224 Y0.897 E8.5477 F1200
G1 X10.310 Y1.174 E8.5795 F1200
G1 X9.416 Y1.510 E8.6113 F1200
G1 X8.546 Y1.905 E8.6431 F1200
G1 X7.703 Y2.355 E8.6748 F1200
G1 X6.891 Y2.859 E8.7066 F1200
G1 X6.115 Y3.415 E8.7384 F1200
G1 X5.376 Y4.021 E8.7702 F1200
G1 X4.679 Y4.674 E8.8019 F1200
G1 X4.026 Y5.371 E8.8337 F1200
G1 X3.419 Y6.110 E8.8655 F1200
G1 X2.863 Y6.886 E8.8973 F1200
G1 X2.358 Y7.697 E8.9290 F1200
G1 X1.907 Y8.540 E8.9608 F1200
G1 X1.513 Y9.410 E8.9926 F1200
G1 X1.176 Y10.304 E9.0244 F1200
G1 X0.899 Y11.218 E9.0562 F1200
G1 X0.681 Y12.149 E9.0879 F1200
G1 X0.526 Y13.091 E9.1197 F1200
G1 X0.432 Y14.042 E9.1515 F1200
G1 X0.400 Y14.997 E9.1833 F1200
G1 X0.431 Y15.952 E9.2150 F1200
G1 X0.525 Y16.902 E9.2468 F1200
G1 X0.680 Y17.845 E9.2786 F1200
G1 X0.897 Y18.776 E9.3104 F1200
G1 X1.174 Y19.690 E9.3421 F1200
G1 X1.510 Y20.584 E9.3739 F1200
G1 X1.905 Y21.454 E9.4057 F1200
G1 X2.355 Y22.297 E9.4375 F1200
G1 X2.859 Y23.108 E9.4692 F1200
G1 X3.415 Y23.885 E9.5010 F1200
G1 X4.021 Y24.624 E9.5328 F1200
G1 X4.674 Y25.321 E9.5646 F1200
G1 X5.371 Y25.974 E9.5963 F1200
G1 X6.110 Y26.581 E9.6281 F1200
G1 X6.886 Y27.137 E9.6599 F1200
G1 X7.697 Y27.642 E9.6917 F1200
G1 X8.540 Y28.093 E9.7235 F1200
G1 X9.410 Y28.487 E9.7552 F1200
G1 X10.304 Y28.824 E9.7870 F1200
G1 X11.218 Y29.101 E9.8188 F1200
G1 X12.149 Y29.319 E9.8506 F1200
G1 X13.091 Y29.474 E9.8823 F1200
G1 X14.042 Y29.568 E9.9141 F1200
G1 X14.997 Y29.600 E9.9459 F1200
; FEATURE: Bottom surface
G0 X23.383 Y3.301 F7200
G1 X26.699 Y6.617 E10.1019 F1200
G0 X21.868 Y2.352 F7200
G1 X27.648 Y8.133 E10.3737 F1200
G0 X20.759 Y1.809 F7200
G1 X28.191 Y9.241 E10.7233 F1200
G0 X19.821 Y1.437 F7200
G1 X28.563 Y10.179 E11.1345 F1200
G0 X18.989 Y1.171 F7200
G1 X28.829 Y11.011 E11.5974 F1200
G0 X18.227 Y0.975 F7200
G1 X29.025 Y11.773 E12.1053 F1200
G0 X17.516 Y0.829 F7200
G1 X29.171 Y12.484 E12.6535 F1200
G0 X16.841 Y0.720 F7200
G1 X29.280 Y13.159 E13.2386 F1200
G0 X16.214 Y0.658 F7200
G1 X29.342 Y13.786 E13.8561 F1200
G0 X15.610 Y0.620 F7200
G1 X29.380 Y14.390 E14.5038 F1200
G0 X15.026 Y0.601 F7200
G1 X29.399 Y14.974 E15.1798 F1200
G0 X14.476 Y0.618 F7200
G1 X29.383 Y15.524 E15.8810 F1200
G0 X13.936 Y0.643 F7200
G1 X29.357 Y16.064 E16.6063 F1200
G0 X13.421 Y0.694 F7200
G1 X29.306 Y16.579 E17.3535 F1200
G0 X12.919 Y0.757 F7200
G1 X29.243 Y17.081 E18.1213 F1200
G0 X12.433 Y0.837 F7200
G1 X29.163 Y17.567 E18.9082 F1200
G0 X11.961 Y0.931 F7200
G1 X29.069 Y18.039 E19.7130 F1200
G0 X11.502 Y1.038 F7200
G1 X28.962 Y18.498 E20.5342 F1200
G0 X11.056 Y1.157 F7200
G1 X28.843 Y18.944 E21.3709 F1200
G0 X10.622 Y1.289 F7200
G1 X28.711 Y19.378 E22.2218 F1200
G0 X10.198 Y1.430 F7200
G1 X28.570 Y19.802 E23.0859 F1200
G0 X9.787 Y1.585 F7200
G1 X28.415 Y20.213 E23.9622 F1200
G0 X9.382 Y1.745 F7200
G1 X28.255 Y20.618 E24.8499 F1200
G0 X8.992 Y1.922 F7200
G1 X28.078 Y21.008 E25.7476 F1200
G0 X8.605 Y2.100 F7200
G1 X27.900 Y21.396 E26.6553 F1200
G0 X8.236 Y2.297 F7200
G1 X27.703 Y21.764 E27.5709 F1200
G0 X7.867 Y2.494 F7200
G1 X27.506 Y22.133 E28.4947 F1200
G0 X7.515 Y2.707 F7200
G1 X27.293 Y22.485 E29.4250 F1200
G0 X7.166 Y2.924 F7200
G1 X27.076 Y22.834 E30.3615 F1200
G0 X6.827 Y3.151 F7200
G1 X26.849 Y23.173 E31.3033 F1200
G0 X6.498 Y3.387 F7200
G1 X26.613 Y23.502 E32.2494 F1200
G0 X6.172 Y3.627 F7200
G1 X26.373 Y23.828 E33.1996 F1200
G0 X5.861 Y3.882 F7200
G1 X26.118 Y24.139 E34.1524 F1200
G0 X5.551 Y4.137 F7200
G1 X25.863 Y24.449 E35.1079 F1200
G0 X5.256 Y4.408 F7200
G1 X25.592 Y24.744 E36.0644 F1200
G0 X4.964 Y4.681 F7200
G1 X25.318 Y25.036 E37.0219 F1200
G0 X4.681 Y4.964 F7200
G1 X25.036 Y25.319 E37.9793 F1200
G0 X4.407 Y5.256 F7200
G1 X24.744 Y25.593 E38.9358 F1200
G0 X4.136 Y5.551 F7200
G1 X24.449 Y25.864 E39.8913 F1200
G0 X3.881 Y5.862 F7200
G1 X24.138 Y26.119 E40.8441 F1200
G0 X3.626 Y6.173 F7200
G1 X23.827 Y26.373 E41.7943 F1200
G0 X3.387 Y6.499 F7200
G1 X23.502 Y26.613 E42.7404 F1200
G0 X3.150 Y6.828 F7200
G1 X23.172 Y26.850 E43.6822 F1200
G0 X2.924 Y7.167 F7200
G1 X22.833 Y27.077 E44.6186 F1200
G0 X2.707 Y7.516 F7200
G1 X22.484 Y27.293 E45.5489 F1200
G0 X2.493 Y7.868 F7200
G1 X22.132 Y27.507 E46.4727 F1200
G0 X2.296 Y8.237 F7200
G1 X21.763 Y27.704 E47.3883 F1200
G0 X2.099 Y8.605 F7200
G1 X21.395 Y27.901 E48.2959 F1200
G0 X1.921 Y8.993 F7200
G1 X21.007 Y28.079 E49.1937 F1200
G0 X1.745 Y9.382 F7200
G1 X20.618 Y28.255 E50.0814 F1200
G0 X1.584 Y9.787 F7200
G1 X20.213 Y28.416 E50.9576 F1200
G0 X1.430 Y10.198 F7200
G1 X19.802 Y28.570 E51.8217 F1200
G0 X1.288 Y10.623 F7200
G1 X19.377 Y28.712 E52.6726 F1200
G0 X1.157 Y11.057 F7200
G1 X18.943 Y28.843 E53.5092 F1200
G0 X1.037 Y11.503 F7200
G1 X18.497 Y28.963 E54.3304 F1200
G0 X0.930 Y11.962 F7200
G1 X18.038 Y29.069 E55.1351 F1200
G0 X0.837 Y12.434 F7200
G1 X17.566 Y29.163 E55.9220 F1200
G0 X0.757 Y12.920 F7200
G1 X17.080 Y29.243 E56.6898 F1200
G0 X0.694 Y13.422 F7200
G1 X16.578 Y29.306 E57.4369 F1200
G0 X0.643 Y13.937 F7200
G1 X16.063 Y29.357 E58.1622 F1200
G0 X0.618 Y14.477 F7200
G1 X15.523 Y29.382 E58.8633 F1200
G0 X0.601 Y15.027 F7200
G1 X14.973 Y29.399 E59.5393 F1200
G0 X0.620 Y15.612 F7200
G1 X14.388 Y29.380 E60.1869 F1200
G0 X0.658 Y16.215 F7200
G1 X13.785 Y29.342 E60.8043 F1200
G0 X0.720 Y16.843 F7200
G1 X13.157 Y29.280 E61.3894 F1200
G0 X0.829 Y17.517 F7200
G1 X12.483 Y29.171 E61.9375 F1200
G0 X0.975 Y18.229 F7200
G1 X11.771 Y29.025 E62.4453 F1200
G0 X1.171 Y18.991 F7200
G1 X11.009 Y28.829 E62.9081 F1200
G0 X1.438 Y19.823 F7200
G1 X10.177 Y28.562 E63.3191 F1200
G0 X1.810 Y20.761 F7200
G1 X9.239 Y28.190 E63.6685 F1200
G0 X2.353 Y21.870 F7200
G1 X8.130 Y27.647 E63.9403 F1200
G0 X3.305 Y23.387 F7200
G1 X6.613 Y26.696 E64.0959 F1200
; --- layer 2/150 z=0.400 ---
;LAYER_CHANGE
;Z:0.400
G1 Z0.400 F7200
M106 S255
; FEATURE: Outer wall
G1 E62.5959 F7200
G0 X14.990 Y30.000 F7200
G1 E64.0959 F7200
G1 X15.971 Y29.968 E64.1285 F3600
G1 X16.948 Y29.873 E64.1612 F3600
G1 X17.917 Y29.713 E64.1938 F3600
G1 X18.873 Y29.491 E64.2265 F3600
G1 X19.812 Y29.207 E64.2591 F3600
G1 X20.731 Y28.862 E64.2918 F3600
G1 X21.625 Y28.457 E64.3244 F3600
G1 X22.491 Y27.995 E64.3570 F3600
G1 X23.325 Y27.477 E64.3897 F3600
G1 X24.123 Y26.906 E64.4223 F3600
G1 X24.883 Y26.284 E64.4550 F3600
G1 X25.599 Y25.613 E64.4876 F3600
G1 X26.271 Y24.897 E64.5203 F3600
G1 X26.894 Y24.139 E64.5529 F3600
G1 X27.466 Y23.342 E64.5856 F3600
G1 X27.985 Y22.508 E64.6182 F3600
G1 X28.448 Y21.643 E64.6509 F3600
G1 X28.854 Y20.749 E64.6835 F3600
G1 X29.200 Y19.831 E64.7162 F3600
G1 X29.486 Y18.892 E64.7488 F3600
G1 X29.710 Y17.936 E64.7815 F3600
G1 X29.870 Y16.968 E64.8141 F3600
G1 X29.968 Y15.981 E64.8471 F3600
G1 X30.000 Y15.010 E64.8794 F3600
G1 X29.968 Y14.029 E64.9120 F3600
G1 X29.873 Y13.052 E64.9447 F3600
G1 X29.713 Y12.083 E64.9773 F3600
G1 X29.491 Y11.127 E65.0100 F3600
G1 X29.207 Y10.188 E65.0426 F3600
G1 X28.862 Y9.269 E65.0753 F3600
G1 X28.457 Y8.375 E65.1079 F3600
G1 X27.995 Y7.509 E65.1406 F3600
G1 X27.477 Y6.675 E65.1732 F3600
G1 X26.906 Y5.877 E65.2059 F3600
G1 X26.284 Y5.117 E65.2385 F3600
G1 X25.613 Y4.401 E65.2712 F3600
G1 X24.897 Y3.729 E65.3038 F3600
G1 X24.139 Y3.106 E65.3364 F3600
G1 X23.342 Y2.534 E65.3691 F3600
G1 X22.508 Y2.015 E65.4017 F3600
G1 X21.643 Y1.552 E65.4344 F3600
G1 X20.749 Y1.146 E65.4670 F3600
G1 X19.831 Y0.800 E65.4997 F3600
G1 X18.892 Y0.514 E65.5323 F3600
G1 X17.936 Y0.290 E65.5650 F3600
G1 X16.968 Y0.130 E65.5976 F3600
G1 X15.991 Y0.033 E65.6303 F3600
G1 X15.010 Y0.000 E65.6629 F3600
G1 X14.029 Y0.032 E65.6956 F3600
G1 X13.052 Y0.127 E65.7282 F3600
G1 X12.083 Y0.287 E65.7609 F3600
G1 X11.127 Y0.509 E65.7935 F3600
