; Generated by 3DPrintForge native slicer
; Layers: 30, layer height: 0.2 mm
; Material: PLA, nozzle 215C, bed 60C
; estimated_time: 0
M140 S60
M104 S215
G28 ; home
M190 S60
M109 S215
G92 E0
G90
M82
M107
; --- prime line ---
G1 Z0.200 F7200
G1 X20 Y20 F7200
G1 X80 Y20 E1.9956 F1200
G92 E0
; --- layer 1/30 z=0.200 ---
;LAYER_CHANGE
;Z:0.200
G1 Z0.200 F7200
; FEATURE: Skirt
G1 E-1.5000 F7200
G0 X43.000 Y-3.000 F7200
G1 E0.0000 F7200
G1 X-3.000 Y-3.000 E1.5300 F1200
G1 X-3.000 Y43.000 E3.0599 F1200
G1 X43.000 Y43.000 E4.5899 F1200
G1 X43.000 Y-3.000 E6.1199 F1200
; FEATURE: Outer wall
G1 E4.6199 F7200
G0 X0.000 Y40.000 F7200
G1 E6.1199 F7200
G1 X40.000 Y40.000 E7.4503 F1200
G1 X40.000 Y0.000 E8.7807 F1200
G1 X0.000 Y0.000 E10.1111 F1200
G1 X0.000 Y40.000 E11.4415 F1200
; FEATURE: Inner wall
G1 E9.9415 F7200
G0 X0.400 Y39.600 F7200
G1 E11.4415 F7200
G1 X39.600 Y39.600 E12.7453 F1200
G1 X39.600 Y0.400 E14.0491 F1200
G1 X0.400 Y0.400 E15.3529 F1200
G1 X0.400 Y39.600 E16.6567 F1200
; FEATURE: Bottom surface
G0 X39.117 Y0.600 F7200
G1 X39.400 Y0.883 E16.6700 F1200
G0 X38.551 Y0.600 F7200
G1 X39.400 Y1.449 E16.7099 F1200
G0 X37.986 Y0.600 F7200
G1 X39.400 Y2.014 E16.7764 F1200
G0 X37.420 Y0.600 F7200
G1 X39.400 Y2.580 E16.8695 F1200
G0 X36.854 Y0.600 F7200
G1 X39.400 Y3.146 E16.9893 F1200
G0 X36.289 Y0.600 F7200
G1 X39.400 Y3.711 E17.1356 F1200
G0 X35.723 Y0.600 F7200
G1 X39.400 Y4.277 E17.3086 F1200
G0 X35.157 Y0.600 F7200
G1 X39.400 Y4.843 E17.5081 F1200
G0 X34.592 Y0.600 F7200
G1 X39.400 Y5.408 E17.7343 F1200
G0 X34.026 Y0.600 F7200
G1 X39.400 Y5.974 E17.9871 F1200
G0 X33.460 Y0.600 F7200
G1 X39.400 Y6.540 E18.2665 F1200
G0 X32.895 Y0.600 F7200
G1 X39.400 Y7.105 E18.5725 F1200
G0 X32.329 Y0.600 F7200
G1 X39.400 Y7.671 E18.9051 F1200
G0 X31.763 Y0.600 F7200
G1 X39.400 Y8.237 E19.2643 F1200
G0 X31.198 Y0.600 F7200
G1 X39.400 Y8.802 E19.6501 F1200
G0 X30.632 Y0.600 F7200
G1 X39.400 Y9.368 E20.0625 F1200
G0 X30.066 Y0.600 F7200
G1 X39.400 Y9.934 E20.5015 F1200
G0 X29.501 Y0.600 F7200
G1 X39.400 Y10.499 E20.9672 F1200
G0 X28.935 Y0.600 F7200
G1 X39.400 Y11.065 E21.4594 F1200
G0 X28.369 Y0.600 F7200
G1 X39.400 Y11.631 E21.9783 F1200
G0 X27.803 Y0.600 F7200
G1 X39.400 Y12.197 E22.5238 F1200
G0 X27.238 Y0.600 F7200
G1 X39.400 Y12.762 E23.0958 F1200
G0 X26.672 Y0.600 F7200
G1 X39.400 Y13.328 E23.6945 F1200
G0 X26.106 Y0.600 F7200
G1 X39.400 Y13.894 E24.3198 F1200
G0 X25.541 Y0.600 F7200
G1 X39.400 Y14.459 E24.9717 F1200
G0 X24.975 Y0.600 F7200
G1 X39.400 Y15.025 E25.6502 F1200
G0 X24.409 Y0.600 F7200
G1 X39.400 Y15.591 E26.3553 F1200
G0 X23.844 Y0.600 F7200
G1 X39.400 Y16.156 E27.0871 F1200
G0 X23.278 Y0.600 F7200
G1 X39.400 Y16.722 E27.8454 F1200
G0 X22.712 Y0.600 F7200
G1 X39.400 Y17.288 E28.6303 F1200
G0 X22.147 Y0.600 F7200
G1 X39.400 Y17.853 E29.4419 F1200
G0 X21.581 Y0.600 F7200
G1 X39.400 Y18.419 E30.2800 F1200
G0 X21.015 Y0.600 F7200
G1 X39.400 Y18.985 E31.1448 F1200
G0 X20.450 Y0.600 F7200
G1 X39.400 Y19.550 E32.0362 F1200
G0 X19.884 Y0.600 F7200
G1 X39.400 Y20.116 E32.9541 F1200
G0 X19.318 Y0.600 F7200
G1 X39.400 Y20.682 E33.8987 F1200
G0 X18.752 Y0.600 F7200
G1 X39.400 Y21.248 E34.8699 F1200
G0 X18.187 Y0.600 F7200
G1 X39.400 Y21.813 E35.8677 F1200
G0 X17.621 Y0.600 F7200
G1 X39.400 Y22.379 E36.8921 F1200
G0 X17.055 Y0.600 F7200
G1 X39.400 Y22.945 E37.9432 F1200
G0 X16.490 Y0.600 F7200
G1 X39.400 Y23.510 E39.0208 F1200
G0 X15.924 Y0.600 F7200
G1 X39.400 Y24.076 E40.1250 F1200
G0 X15.358 Y0.600 F7200
G1 X39.400 Y24.642 E41.2559 F1200
G0 X14.793 Y0.600 F7200
G1 X39.400 Y25.207 E42.4133 F1200
G0 X14.227 Y0.600 F7200
G1 X39.400 Y25.773 E43.5974 F1200
G0 X13.661 Y0.600 F7200
G1 X39.400 Y26.339 E44.8081 F1200
G0 X13.096 Y0.600 F7200
G1 X39.400 Y26.904 E46.0453 F1200
G0 X12.530 Y0.600 F7200
G1 X39.400 Y27.470 E47.3092 F1200
G0 X11.964 Y0.600 F7200
G1 X39.400 Y28.036 E48.5997 F1200
G0 X11.399 Y0.600 F7200
G1 X39.400 Y28.601 E49.9168 F1200
G0 X10.833 Y0.600 F7200
G1 X39.400 Y29.167 E51.2605 F1200
G0 X10.267 Y0.600 F7200
G1 X39.400 Y29.733 E52.6308 F1200
G0 X9.702 Y0.600 F7200
G1 X39.400 Y30.298 E54.0278 F1200
G0 X9.136 Y0.600 F7200
G1 X39.400 Y30.864 E55.4513 F1200
G0 X8.570 Y0.600 F7200
G1 X39.400 Y31.430 E56.9014 F1200
G0 X8.004 Y0.600 F7200
G1 X39.400 Y31.996 E58.3782 F1200
G0 X7.439 Y0.600 F7200
G1 X39.400 Y32.561 E59.8815 F1200
G0 X6.873 Y0.600 F7200
G1 X39.400 Y33.127 E61.4115 F1200
G0 X6.307 Y0.600 F7200
G1 X39.400 Y33.693 E62.9681 F1200
G0 X5.742 Y0.600 F7200
G1 X39.400 Y34.258 E64.5513 F1200
G0 X5.176 Y0.600 F7200
G1 X39.400 Y34.824 E66.1611 F1200
G0 X4.610 Y0.600 F7200
G1 X39.400 Y35.390 E67.7975 F1200
G0 X4.045 Y0.600 F7200
G1 X39.400 Y35.955 E69.4605 F1200
G0 X3.479 Y0.600 F7200
G1 X39.400 Y36.521 E71.1501 F1200
G0 X2.913 Y0.600 F7200
G1 X39.400 Y37.087 E72.8663 F1200
G0 X2.348 Y0.600 F7200
G1 X39.400 Y37.652 E74.6091 F1200
G0 X1.782 Y0.600 F7200
G1 X39.400 Y38.218 E76.3786 F1200
G0 X1.216 Y0.600 F7200
G1 X39.400 Y38.784 E78.1746 F1200
G0 X0.651 Y0.600 F7200
G1 X39.400 Y39.349 E79.9973 F1200
G0 X0.600 Y1.115 F7200
G1 X38.885 Y39.400 E81.7981 F1200
G0 X0.600 Y1.681 F7200
G1 X38.319 Y39.400 E83.5723 F1200
G0 X0.600 Y2.247 F7200
G1 X37.753 Y39.400 E85.3199 F1200
G0 X0.600 Y2.812 F7200
G1 X37.188 Y39.400 E87.0408 F1200
G0 X0.600 Y3.378 F7200
G1 X36.622 Y39.400 E88.7352 F1200
G0 X0.600 Y3.944 F7200
G1 X36.056 Y39.400 E90.4030 F1200
G0 X0.600 Y4.509 F7200
G1 X35.491 Y39.400 E92.0441 F1200
G0 X0.600 Y5.075 F7200
G1 X34.925 Y39.400 E93.6587 F1200
G0 X0.600 Y5.641 F7200
G1 X34.359 Y39.400 E95.2466 F1200
G0 X0.600 Y6.206 F7200
G1 X33.794 Y39.400 E96.8079 F1200
G0 X0.600 Y6.772 F7200
G1 X33.228 Y39.400 E98.3427 F1200
G0 X0.600 Y7.338 F7200
G1 X32.662 Y39.400 E99.8508 F1200
G0 X0.600 Y7.903 F7200
G1 X32.097 Y39.400 E101.3323 F1200
G0 X0.600 Y8.469 F7200
G1 X31.531 Y39.400 E102.7872 F1200
G0 X0.600 Y9.035 F7200
G1 X30.965 Y39.400 E104.2155 F1200
G0 X0.600 Y9.600 F7200
G1 X30.400 Y39.400 E105.6171 F1200
G0 X0.600 Y10.166 F7200
G1 X29.834 Y39.400 E106.9922 F1200
G0 X0.600 Y10.732 F7200
G1 X29.268 Y39.400 E108.3407 F1200
G0 X0.600 Y11.297 F7200
G1 X28.703 Y39.400 E109.6625 F1200
G0 X0.600 Y11.863 F7200
G1 X28.137 Y39.400 E110.9578 F1200
G0 X0.600 Y12.429 F7200
G1 X27.571 Y39.400 E112.2264 F1200
G0 X0.600 Y12.995 F7200
G1 X27.005 Y39.400 E113.4685 F1200
G0 X0.600 Y13.560 F7200
G1 X26.440 Y39.400 E114.6839 F1200
G0 X0.600 Y14.126 F7200
G1 X25.874 Y39.400 E115.8727 F1200
G0 X0.600 Y14.692 F7200
G1 X25.308 Y39.400 E117.0349 F1200
G0 X0.600 Y15.257 F7200
G1 X24.743 Y39.400 E118.1705 F1200
G0 X0.600 Y15.823 F7200
G1 X24.177 Y39.400 E119.2795 F1200
G0 X0.600 Y16.389 F7200
G1 X23.611 Y39.400 E120.3619 F1200
G0 X0.600 Y16.954 F7200
G1 X23.046 Y39.400 E121.4177 F1200
G0 X0.600 Y17.520 F7200
G1 X22.480 Y39.400 E122.4468 F1200
G0 X0.600 Y18.086 F7200
G1 X21.914 Y39.400 E123.4494 F1200
G0 X0.600 Y18.651 F7200
G1 X21.349 Y39.400 E124.4253 F1200
G0 X0.600 Y19.217 F7200
G1 X20.783 Y39.400 E125.3747 F1200
G0 X0.600 Y19.783 F7200
G1 X20.217 Y39.400 E126.2974 F1200
G0 X0.600 Y20.348 F7200
G1 X19.652 Y39.400 E127.1935 F1200
G0 X0.600 Y20.914 F7200
G1 X19.086 Y39.400 E128.0631 F1200
G0 X0.600 Y21.480 F7200
G1 X18.520 Y39.400 E128.9060 F1200
G0 X0.600 Y22.045 F7200
G1 X17.955 Y39.400 E129.7223 F1200
G0 X0.600 Y22.611 F7200
G1 X17.389 Y39.400 E130.5120 F1200
G0 X0.600 Y23.177 F7200
G1 X16.823 Y39.400 E131.2751 F1200
G0 X0.600 Y23.743 F7200
G1 X16.257 Y39.400 E132.0115 F1200
G0 X0.600 Y24.308 F7200
G1 X15.692 Y39.400 E132.7214 F1200
G0 X0.600 Y24.874 F7200
G1 X15.126 Y39.400 E133.4047 F1200
G0 X0.600 Y25.440 F7200
G1 X14.560 Y39.400 E134.0613 F1200
G0 X0.600 Y26.005 F7200
G1 X13.995 Y39.400 E134.6914 F1200
G0 X0.600 Y26.571 F7200
G1 X13.429 Y39.400 E135.2948 F1200
G0 X0.600 Y27.137 F7200
G1 X12.863 Y39.400 E135.8716 F1200
G0 X0.600 Y27.702 F7200
G1 X12.298 Y39.400 E136.4219 F1200
G0 X0.600 Y28.268 F7200
G1 X11.732 Y39.400 E136.9455 F1200
G0 X0.600 Y28.834 F7200
G1 X11.166 Y39.400 E137.4425 F1200
G0 X0.600 Y29.399 F7200
G1 X10.601 Y39.400 E137.9129 F1200
G0 X0.600 Y29.965 F7200
G1 X10.035 Y39.400 E138.3567 F1200
G0 X0.600 Y30.531 F7200
G1 X9.469 Y39.400 E138.7738 F1200
G0 X0.600 Y31.096 F7200
G1 X8.904 Y39.400 E139.1644 F1200
G0 X0.600 Y31.662 F7200
G1 X8.338 Y39.400 E139.5284 F1200
G0 X0.600 Y32.228 F7200
G1 X7.772 Y39.400 E139.8657 F1200
G0 X0.600 Y32.794 F7200
G1 X7.206 Y39.400 E140.1765 F1200
G0 X0.600 Y33.359 F7200
G1 X6.641 Y39.400 E140.4606 F1200
G0 X0.600 Y33.925 F7200
G1 X6.075 Y39.400 E140.7182 F1200
G0 X0.600 Y34.491 F7200
G1 X5.509 Y39.400 E140.9491 F1200
G0 X0.600 Y35.056 F7200
G1 X4.944 Y39.400 E141.1534 F1200
G0 X0.600 Y35.622 F7200
G1 X4.378 Y39.400 E141.3311 F1200
G0 X0.600 Y36.188 F7200
G1 X3.812 Y39.400 E141.4822 F1200
G0 X0.600 Y36.753 F7200
G1 X3.247 Y39.400 E141.6067 F1200
G0 X0.600 Y37.319 F7200
G1 X2.681 Y39.400 E141.7046 F1200
G0 X0.600 Y37.885 F7200
G1 X2.115 Y39.400 E141.7759 F1200
G0 X0.600 Y38.450 F7200
G1 X1.550 Y39.400 E141.8205 F1200
G0 X0.600 Y39.016 F7200
G1 X0.984 Y39.400 E141.8386 F1200
; --- layer 2/30 z=0.400 ---
;LAYER_CHANGE
;Z:0.400
G1 Z0.400 F7200
M106 S255
; FEATURE: Outer wall
G1 E140.3386 F7200
G0 X0.000 Y40.000 F7200
G1 E141.8386 F7200
G1 X40.000 Y40.000 E143.1690 F3600
G1 X40.000 Y0.000 E144.4994 F3600
G1 X0.000 Y0.000 E145.8298 F3600
G1 X0.000 Y40.000 E147.1602 F3600
; FEATURE: Inner wall
G1 E145.6602 F7200
G0 X0.400 Y39.600 F7200
G1 E147.1602 F7200
G1 X39.600 Y39.600 E148.4640 F3600
G1 X39.600 Y0.400 E149.7678 F3600
G1 X0.400 Y0.400 E151.0716 F3600
G1 X0.400 Y39.600 E152.3754 F3600
; FEATURE: Internal solid infill
G0 X39.400 Y39.117 F7200
G1 X39.117 Y39.400 E152.3887 F3600
G1 X38.551 Y39.400 E152.4075 F3600
G1 X39.400 Y38.551 E152.4474 F3600
G1 X39.400 Y37.986 E152.4662 F3600
G1 X37.986 Y39.400 E152.5328 F3600
G1 X37.420 Y39.400 E152.5516 F3600
G1 X39.400 Y37.420 E152.6447 F3600
G1 X39.400 Y36.854 E152.6635 F3600
G1 X36.854 Y39.400 E152.7833 F3600
G1 X36.289 Y39.400 E152.8021 F3600
G1 X39.400 Y36.289 E152.9484 F3600
G1 X39.400 Y35.723 E152.9672 F3600
G1 X35.723 Y39.400 E153.1402 F3600
G1 X35.157 Y39.400 E153.1590 F3600
G1 X39.400 Y35.157 E153.3586 F3600
G1 X39.400 Y34.592 E153.3774 F3600
G1 X34.592 Y39.400 E153.6035 F3600
G1 X34.026 Y39.400 E153.6224 F3600
G1 X39.400 Y34.026 E153.8751 F3600
G1 X39.400 Y33.460 E153.8939 F3600
G1 X33.460 Y39.400 E154.1733 F3600
G1 X32.895 Y39.400 E154.1921 F3600
G1 X39.400 Y32.895 E154.4981 F3600
G1 X39.400 Y32.329 E154.5170 F3600
G1 X32.329 Y39.400 E154.8496 F3600
G1 X31.763 Y39.400 E154.8684 F3600
G1 X39.400 Y31.763 E155.2276 F3600
G1 X39.400 Y31.198 E155.2464 F3600
G1 X31.198 Y39.400 E155.6322 F3600
G1 X30.632 Y39.400 E155.6510 F3600
G1 X39.400 Y30.632 E156.0635 F3600
G1 X39.400 Y30.066 E156.0823 F3600
G1 X30.066 Y39.400 E156.5213 F3600
G1 X29.501 Y39.400 E156.5401 F3600
G1 X39.400 Y29.501 E157.0058 F3600
G1 X39.400 Y28.935 E157.0246 F3600
G1 X28.935 Y39.400 E157.5168 F3600
G1 X28.369 Y39.400 E157.5356 F3600
G1 X39.400 Y28.369 E158.0545 F3600
G1 X39.400 Y27.803 E158.0733 F3600
G1 X27.803 Y39.400 E158.6188 F3600
G1 X27.238 Y39.400 E158.6376 F3600
G1 X39.400 Y27.238 E159.2097 F3600
G1 X39.400 Y26.672 E159.2285 F3600
G1 X26.672 Y39.400 E159.8272 F3600
G1 X26.106 Y39.400 E159.8460 F3600
G1 X39.400 Y26.106 E160.4713 F3600
G1 X39.400 Y25.541 E160.4901 F3600
G1 X25.541 Y39.400 E161.1420 F3600
G1 X24.975 Y39.400 E161.1608 F3600
G1 X39.400 Y24.975 E161.8393 F3600
G1 X39.400 Y24.409 E161.8581 F3600
G1 X24.409 Y39.400 E162.5632 F3600
G1 X23.844 Y39.400 E162.5820 F3600
G1 X39.400 Y23.844 E163.3138 F3600
G1 X39.400 Y23.278 E163.3326 F3600
G1 X23.278 Y39.400 E164.0909 F3600
G1 X22.712 Y39.400 E164.1097 F3600
G1 X39.400 Y22.712 E164.8947 F3600
G1 X39.400 Y22.147 E164.9135 F3600
G1 X22.147 Y39.400 E165.7250 F3600
G1 X21.581 Y39.400 E165.7438 F3600
G1 X39.400 Y21.581 E166.5820 F3600
G1 X39.400 Y21.015 E166.6008 F3600
G1 X21.015 Y39.400 E167.4656 F3600
G1 X20.450 Y39.400 E167.4844 F3600
G1 X39.400 Y20.450 E168.3758 F3600
G1 X39.400 Y19.884 E168.3946 F3600
G1 X19.884 Y39.400 E169.3126 F3600
G1 X19.318 Y39.400 E169.3314 F3600
G1 X39.400 Y19.318 E170.2760 F3600
G1 X39.400 Y18.752 E170.2948 F3600
G1 X18.752 Y39.400 E171.2660 F3600
G1 X18.187 Y39.400 E171.2848 F3600
G1 X39.400 Y18.187 E172.2826 F3600
G1 X39.400 Y17.621 E172.3014 F3600
G1 X17.621 Y39.400 E173.3258 F3600
G1 X17.055 Y39.400 E173.3446 F3600
G1 X39.400 Y17.055 E174.3957 F3600
G1 X39.400 Y16.490 E174.4145 F3600
G1 X16.490 Y39.400 E175.4921 F3600
G1 X15.924 Y39.400 E175.5109 F3600
G1 X39.400 Y15.924 E176.6151 F3600
G1 X39.400 Y15.358 E176.6340 F3600
G1 X15.358 Y39.400 E177.7648 F3600
G1 X14.793 Y39.400 E177.7836 F3600
G1 X39.400 Y14.793 E178.9411 F3600
G1 X39.400 Y14.227 E178.9599 F3600
G1 X14.227 Y39.400 E180.1440 F3600
G1 X13.661 Y39.400 E180.1628 F3600
G1 X39.400 Y13.661 E181.3734 F3600
G1 X39.400 Y13.096 E181.3923 F3600
G1 X13.096 Y39.400 E182.6295 F3600
G1 X12.530 Y39.400 E182.6483 F3600
G1 X39.400 Y12.530 E183.9122 F3600
G1 X39.400 Y11.964 E183.9310 F3600
G1 X11.964 Y39.400 E185.2215 F3600
G1 X11.399 Y39.400 E185.2404 F3600
G1 X39.400 Y11.399 E186.5575 F3600
G1 X39.400 Y10.833 E186.5763 F3600
G1 X10.833 Y39.400 E187.9200 F3600
G1 X10.267 Y39.400 E187.9388 F3600
G1 X39.400 Y10.267 E189.3091 F3600
G1 X39.400 Y9.702 E189.3279 F3600
G1 X9.702 Y39.400 E190.7248 F3600
G1 X9.136 Y39.400 E190.7437 F3600
G1 X39.400 Y9.136 E192.1672 F3600
G1 X39.400 Y8.570 E192.1860 F3600
G1 X8.570 Y39.400 E193.6362 F3600
G1 X8.004 Y39.400 E193.6550 F3600
G1 X39.400 Y8.004 E195.1317 F3600
G1 X39.400 Y7.439 E195.1505 F3600
G1 X7.439 Y39.400 E196.6539 F3600
G1 X6.873 Y39.400 E196.6727 F3600
G1 X39.400 Y6.873 E198.2027 F3600
G1 X39.400 Y6.307 E198.2215 F3600
G1 X6.307 Y39.400 E199.7781 F3600
G1 X5.742 Y39.400 E199.7969 F3600
G1 X39.400 Y5.742 E201.3801 F3600
G1 X39.400 Y5.176 E201.3989 F3600
G1 X5.176 Y39.400 E203.0087 F3600
G1 X4.610 Y39.400 E203.0275 F3600
G1 X39.400 Y4.610 E204.6639 F3600
G1 X39.400 Y4.045 E204.6827 F3600
G1 X4.045 Y39.400 E206.3457 F3600
G1 X3.479 Y39.400 E206.3645 F3600
G1 X39.400 Y3.479 E208.0541 F3600
G1 X39.400 Y2.913 E208.0729 F3600
G1 X2.913 Y39.400 E209.7892 F3600
G1 X2.348 Y39.400 E209.8080 F3600
G1 X39.400 Y2.348 E211.5508 F3600
G1 X39.400 Y1.782 E211.5696 F3600
G1 X1.782 Y39.400 E213.3391 F3600
G1 X1.216 Y39.400 E213.3579 F3600
G1 X39.400 Y1.216 E215.1539 F3600
G1 X39.400 Y0.651 E215.1727 F3600
G1 X0.651 Y39.400 E216.9954 F3600
G1 X0.600 Y38.885 E217.0126 F3600
G1 X38.885 Y0.600 E218.8134 F3600
G1 X38.319 Y0.600 E218.8322 F3600
G1 X0.600 Y38.319 E220.6064 F3600
G1 X0.600 Y37.753 E220.6252 F3600
G1 X37.753 Y0.600 E222.3728 F3600
G1 X37.188 Y0.600 E222.3916 F3600
G1 X0.600 Y37.188 E224.1126 F3600
G1 X0.600 Y36.622 E224.1314 F3600
G1 X36.622 Y0.600 E225.8258 F3600
G1 X36.056 Y0.600 E225.8446 F3600
G1 X0.600 Y36.056 E227.5124 F3600
G1 X0.600 Y35.491 E227.5312 F3600
G1 X35.491 Y0.600 E229.1724 F3600
G1 X34.925 Y0.600 E229.1912 F3600
G1 X0.600 Y34.925 E230.8057 F3600
G1 X0.600 Y34.359 E230.8245 F3600
G1 X34.359 Y0.600 E232.4125 F3600
G1 X33.794 Y0.600 E232.4313 F3600
G1 X0.600 Y33.794 E233.9926 F3600
G1 X0.600 Y33.228 E234.0114 F3600
G1 X33.228 Y0.600 E235.5461 F3600
G1 X32.662 Y0.600 E235.5650 F3600
G1 X0.600 Y32.662 E237.0731 F3600
G1 X0.600 Y32.097 E237.0919 F3600
G1 X32.097 Y0.600 E238.5734 F3600
G1 X31.531 Y0.600 E238.5922 F3600
G1 X0.600 Y31.531 E240.0471 F3600
G1 X0.600 Y30.965 E240.0659 F3600
G1 X30.965 Y0.600 E241.4942 F3600
G1 X30.400 Y0.600 E241.5130 F3600
G1 X0.600 Y30.400 E242.9147 F3600
G1 X0.600 Y29.834 E242.9335 F3600
G1 X29.834 Y0.600 E244.3086 F3600
G1 X29.268 Y0.600 E244.3274 F3600
G1 X0.600 Y29.268 E245.6759 F3600
G1 X0.600 Y28.703 E245.6947 F3600
G1 X28.703 Y0.600 E247.0165 F3600
G1 X28.137 Y0.600 E247.0354 F3600
G1 X0.600 Y28.137 E248.3306 F3600
G1 X0.600 Y27.571 E248.3494 F3600
G1 X27.571 Y0.600 E249.6181 F3600
G1 X27.005 Y0.600 E249.6369 F3600
G1 X0.600 Y27.005 E250.8789 F3600
G1 X0.600 Y26.440 E250.8977 F3600
G1 X26.440 Y0.600 E252.1131 F3600
G1 X25.874 Y0.600 E252.1320 F3600
G1 X0.600 Y25.874 E253.3208 F3600
G1 X0.600 Y25.308 E253.3396 F3600
G1 X25.308 Y0.600 E254.5018 F3600
