; Generated by 3DPrintForge native slicer
; Layers: 100, layer height: 0.2 mm
; Material: PLA, nozzle 215C, bed 60C
; estimated_time: 0
M140 S60
M104 S215
G28 ; home
M190 S60
M109 S215
G92 E0
G90
M82
M107
; --- prime line ---
G1 Z0.200 F7200
G1 X20 Y20 F7200
G1 X80 Y20 E1.9956 F1200
G92 E0
; --- layer 1/100 z=0.200 ---
;LAYER_CHANGE
;Z:0.200
G1 Z0.200 F7200
; FEATURE: Skirt
G1 E-1.5000 F7200
G0 X43.000 Y-3.000 F7200
G1 E0.0000 F7200
G1 X-3.000 Y-3.000 E1.5300 F1200
G1 X-3.000 Y22.900 E2.3914 F1200
G1 X43.000 Y22.900 E3.9214 F1200
G1 X43.000 Y-3.000 E4.7828 F1200
; FEATURE: Outer wall
G1 E3.2828 F7200
G0 X0.000 Y19.900 F7200
G1 E4.7828 F7200
G1 X40.000 Y19.900 E6.1132 F1200
G1 X40.000 Y0.000 E6.7751 F1200
G1 X0.000 Y0.000 E8.1055 F1200
G1 X0.000 Y19.900 E8.7674 F1200
; FEATURE: Inner wall
G1 E7.2674 F7200
G0 X0.400 Y19.500 F7200
G1 E8.7674 F7200
G1 X39.600 Y19.500 E10.0712 F1200
G1 X39.600 Y0.400 E10.7064 F1200
G1 X0.400 Y0.400 E12.0102 F1200
G1 X0.400 Y19.500 E12.6455 F1200
; FEATURE: Bottom surface
G0 X39.117 Y0.600 F7200
G1 X39.400 Y0.883 E12.6588 F1200
G0 X38.551 Y0.600 F7200
G1 X39.400 Y1.449 E12.6987 F1200
G0 X37.986 Y0.600 F7200
G1 X39.400 Y2.014 E12.7652 F1200
G0 X37.420 Y0.600 F7200
G1 X39.400 Y2.580 E12.8584 F1200
G0 X36.854 Y0.600 F7200
G1 X39.400 Y3.146 E12.9781 F1200
G0 X36.289 Y0.600 F7200
G1 X39.400 Y3.711 E13.1244 F1200
G0 X35.723 Y0.600 F7200
G1 X39.400 Y4.277 E13.2974 F1200
G0 X35.157 Y0.600 F7200
G1 X39.400 Y4.843 E13.4970 F1200
G0 X34.592 Y0.600 F7200
G1 X39.400 Y5.408 E13.7231 F1200
G0 X34.026 Y0.600 F7200
G1 X39.400 Y5.974 E13.9759 F1200
G0 X33.460 Y0.600 F7200
G1 X39.400 Y6.540 E14.2553 F1200
G0 X32.895 Y0.600 F7200
G1 X39.400 Y7.105 E14.5613 F1200
G0 X32.329 Y0.600 F7200
G1 X39.400 Y7.671 E14.8939 F1200
G0 X31.763 Y0.600 F7200
G1 X39.400 Y8.237 E15.2531 F1200
G0 X31.198 Y0.600 F7200
G1 X39.400 Y8.802 E15.6389 F1200
G0 X30.632 Y0.600 F7200
G1 X39.400 Y9.368 E16.0513 F1200
G0 X30.066 Y0.600 F7200
G1 X39.400 Y9.934 E16.4904 F1200
G0 X29.501 Y0.600 F7200
G1 X39.400 Y10.499 E16.9560 F1200
G0 X28.935 Y0.600 F7200
G1 X39.400 Y11.065 E17.4483 F1200
G0 X28.369 Y0.600 F7200
G1 X39.400 Y11.631 E17.9671 F1200
G0 X27.803 Y0.600 F7200
G1 X39.400 Y12.197 E18.5126 F1200
G0 X27.238 Y0.600 F7200
G1 X39.400 Y12.762 E19.0847 F1200
G0 X26.672 Y0.600 F7200
G1 X39.400 Y13.328 E19.6833 F1200
G0 X26.106 Y0.600 F7200
G1 X39.400 Y13.894 E20.3086 F1200
G0 X25.541 Y0.600 F7200
G1 X39.400 Y14.459 E20.9605 F1200
G0 X24.975 Y0.600 F7200
G1 X39.400 Y15.025 E21.6390 F1200
G0 X24.409 Y0.600 F7200
G1 X39.400 Y15.591 E22.3442 F1200
G0 X23.844 Y0.600 F7200
G1 X39.400 Y16.156 E23.0759 F1200
G0 X23.278 Y0.600 F7200
G1 X39.400 Y16.722 E23.8342 F1200
G0 X22.712 Y0.600 F7200
G1 X39.400 Y17.288 E24.6192 F1200
G0 X22.147 Y0.600 F7200
G1 X39.400 Y17.853 E25.4307 F1200
G0 X21.581 Y0.600 F7200
G1 X39.400 Y18.419 E26.2689 F1200
G0 X21.015 Y0.600 F7200
G1 X39.400 Y18.985 E27.1336 F1200
G0 X20.450 Y0.600 F7200
G1 X39.150 Y19.300 E28.0132 F1200
G0 X19.884 Y0.600 F7200
G1 X38.584 Y19.300 E28.8928 F1200
G0 X19.318 Y0.600 F7200
G1 X38.018 Y19.300 E29.7724 F1200
G0 X18.752 Y0.600 F7200
G1 X37.452 Y19.300 E30.6520 F1200
G0 X18.187 Y0.600 F7200
G1 X36.887 Y19.300 E31.5316 F1200
G0 X17.621 Y0.600 F7200
G1 X36.321 Y19.300 E32.4112 F1200
G0 X17.055 Y0.600 F7200
G1 X35.755 Y19.300 E33.2908 F1200
G0 X16.490 Y0.600 F7200
G1 X35.190 Y19.300 E34.1703 F1200
G0 X15.924 Y0.600 F7200
G1 X34.624 Y19.300 E35.0499 F1200
G0 X15.358 Y0.600 F7200
G1 X34.058 Y19.300 E35.9295 F1200
G0 X14.793 Y0.600 F7200
G1 X33.493 Y19.300 E36.8091 F1200
G0 X14.227 Y0.600 F7200
G1 X32.927 Y19.300 E37.6887 F1200
G0 X13.661 Y0.600 F7200
G1 X32.361 Y19.300 E38.5683 F1200
G0 X13.096 Y0.600 F7200
G1 X31.796 Y19.300 E39.4479 F1200
G0 X12.530 Y0.600 F7200
G1 X31.230 Y19.300 E40.3275 F1200
G0 X11.964 Y0.600 F7200
G1 X30.664 Y19.300 E41.2071 F1200
G0 X11.399 Y0.600 F7200
G1 X30.099 Y19.300 E42.0867 F1200
G0 X10.833 Y0.600 F7200
G1 X29.533 Y19.300 E42.9663 F1200
G0 X10.267 Y0.600 F7200
G1 X28.967 Y19.300 E43.8458 F1200
G0 X9.702 Y0.600 F7200
G1 X28.402 Y19.300 E44.7254 F1200
G0 X9.136 Y0.600 F7200
G1 X27.836 Y19.300 E45.6050 F1200
G0 X8.570 Y0.600 F7200
G1 X27.270 Y19.300 E46.4846 F1200
G0 X8.004 Y0.600 F7200
G1 X26.704 Y19.300 E47.3642 F1200
G0 X7.439 Y0.600 F7200
G1 X26.139 Y19.300 E48.2438 F1200
G0 X6.873 Y0.600 F7200
G1 X25.573 Y19.300 E49.1234 F1200
G0 X6.307 Y0.600 F7200
G1 X25.007 Y19.300 E50.0030 F1200
G0 X5.742 Y0.600 F7200
G1 X24.442 Y19.300 E50.8826 F1200
G0 X5.176 Y0.600 F7200
G1 X23.876 Y19.300 E51.7622 F1200
G0 X4.610 Y0.600 F7200
G1 X23.310 Y19.300 E52.6417 F1200
G0 X4.045 Y0.600 F7200
G1 X22.745 Y19.300 E53.5213 F1200
G0 X3.479 Y0.600 F7200
G1 X22.179 Y19.300 E54.4009 F1200
G0 X2.913 Y0.600 F7200
G1 X21.613 Y19.300 E55.2805 F1200
G0 X2.348 Y0.600 F7200
G1 X21.048 Y19.300 E56.1601 F1200
G0 X1.782 Y0.600 F7200
G1 X20.482 Y19.300 E57.0397 F1200
G0 X1.216 Y0.600 F7200
G1 X19.916 Y19.300 E57.9193 F1200
G0 X0.651 Y0.600 F7200
G1 X19.351 Y19.300 E58.7989 F1200
G0 X0.600 Y1.115 F7200
G1 X18.785 Y19.300 E59.6542 F1200
G0 X0.600 Y1.681 F7200
G1 X18.219 Y19.300 E60.4830 F1200
G0 X0.600 Y2.247 F7200
G1 X17.653 Y19.300 E61.2851 F1200
G0 X0.600 Y2.812 F7200
G1 X17.088 Y19.300 E62.0607 F1200
G0 X0.600 Y3.378 F7200
G1 X16.522 Y19.300 E62.8096 F1200
G0 X0.600 Y3.944 F7200
G1 X15.956 Y19.300 E63.5319 F1200
G0 X0.600 Y4.509 F7200
G1 X15.391 Y19.300 E64.2276 F1200
G0 X0.600 Y5.075 F7200
G1 X14.825 Y19.300 E64.8967 F1200
G0 X0.600 Y5.641 F7200
G1 X14.259 Y19.300 E65.5392 F1200
G0 X0.600 Y6.206 F7200
G1 X13.694 Y19.300 E66.1551 F1200
G0 X0.600 Y6.772 F7200
G1 X13.128 Y19.300 E66.7444 F1200
G0 X0.600 Y7.338 F7200
G1 X12.562 Y19.300 E67.3071 F1200
G0 X0.600 Y7.903 F7200
G1 X11.997 Y19.300 E67.8431 F1200
G0 X0.600 Y8.469 F7200
G1 X11.431 Y19.300 E68.3526 F1200
G0 X0.600 Y9.035 F7200
G1 X10.865 Y19.300 E68.8354 F1200
G0 X0.600 Y9.600 F7200
G1 X10.300 Y19.300 E69.2917 F1200
G0 X0.600 Y10.166 F7200
G1 X9.734 Y19.300 E69.7213 F1200
G0 X0.600 Y10.732 F7200
G1 X9.168 Y19.300 E70.1243 F1200
G0 X0.600 Y11.297 F7200
G1 X8.603 Y19.300 E70.5007 F1200
G0 X0.600 Y11.863 F7200
G1 X8.037 Y19.300 E70.8505 F1200
G0 X0.600 Y12.429 F7200
G1 X7.471 Y19.300 E71.1737 F1200
G0 X0.600 Y12.995 F7200
G1 X6.905 Y19.300 E71.4703 F1200
G0 X0.600 Y13.560 F7200
G1 X6.340 Y19.300 E71.7403 F1200
G0 X0.600 Y14.126 F7200
G1 X5.774 Y19.300 E71.9837 F1200
G0 X0.600 Y14.692 F7200
G1 X5.208 Y19.300 E72.2005 F1200
G0 X0.600 Y15.257 F7200
G1 X4.643 Y19.300 E72.3906 F1200
G0 X0.600 Y15.823 F7200
G1 X4.077 Y19.300 E72.5542 F1200
G0 X0.600 Y16.389 F7200
G1 X3.511 Y19.300 E72.6911 F1200
G0 X0.600 Y16.954 F7200
G1 X2.946 Y19.300 E72.8014 F1200
G0 X0.600 Y17.520 F7200
G1 X2.380 Y19.300 E72.8852 F1200
G0 X0.600 Y18.086 F7200
G1 X1.814 Y19.300 E72.9423 F1200
G0 X0.600 Y18.651 F7200
G1 X1.249 Y19.300 E72.9728 F1200
G0 X0.600 Y19.217 F7200
G1 X0.683 Y19.300 E72.9767 F1200
; --- layer 2/100 z=0.400 ---
;LAYER_CHANGE
;Z:0.400
G1 Z0.400 F7200
M106 S255
; FEATURE: Outer wall
G1 E71.4767 F7200
G0 X0.000 Y19.700 F7200
G1 E72.9767 F7200
G1 X40.000 Y19.700 E74.3071 F3600
G1 X40.000 Y0.000 E74.9623 F3600
G1 X0.000 Y0.000 E76.2927 F3600
G1 X0.000 Y19.700 E76.9479 F3600
; FEATURE: Inner wall
G1 E75.4479 F7200
G0 X0.400 Y19.300 F7200
G1 E76.9479 F7200
G1 X39.600 Y19.300 E78.2517 F3600
G1 X39.600 Y0.400 E78.8804 F3600
G1 X0.400 Y0.400 E80.1842 F3600
G1 X0.400 Y19.300 E80.8128 F3600
; FEATURE: Internal solid infill
G0 X39.400 Y18.817 F7200
G1 X39.117 Y19.100 E80.8261 F3600
G1 X38.551 Y19.100 E80.8449 F3600
G1 X39.400 Y18.251 E80.8848 F3600
G1 X39.400 Y17.686 E80.9036 F3600
G1 X37.986 Y19.100 E80.9701 F3600
G1 X37.420 Y19.100 E80.9890 F3600
G1 X39.400 Y17.120 E81.0821 F3600
G1 X39.400 Y16.554 E81.1009 F3600
G1 X36.854 Y19.100 E81.2206 F3600
G1 X36.289 Y19.100 E81.2395 F3600
G1 X39.400 Y15.989 E81.3858 F3600
G1 X39.400 Y15.423 E81.4046 F3600
G1 X35.723 Y19.100 E81.5776 F3600
G1 X35.157 Y19.100 E81.5964 F3600
G1 X39.400 Y14.857 E81.7959 F3600
G1 X39.400 Y14.292 E81.8148 F3600
G1 X34.592 Y19.100 E82.0409 F3600
G1 X34.026 Y19.100 E82.0597 F3600
G1 X39.400 Y13.726 E82.3125 F3600
G1 X39.400 Y13.160 E82.3313 F3600
G1 X33.460 Y19.100 E82.6107 F3600
G1 X32.895 Y19.100 E82.6295 F3600
G1 X39.400 Y12.595 E82.9355 F3600
G1 X39.400 Y12.029 E82.9543 F3600
G1 X32.329 Y19.100 E83.2869 F3600
G1 X31.763 Y19.100 E83.3058 F3600
G1 X39.400 Y11.463 E83.6650 F3600
G1 X39.400 Y10.898 E83.6838 F3600
G1 X31.198 Y19.100 E84.0696 F3600
G1 X30.632 Y19.100 E84.0884 F3600
G1 X39.400 Y10.332 E84.5008 F3600
G1 X39.400 Y9.766 E84.5196 F3600
G1 X30.066 Y19.100 E84.9587 F3600
G1 X29.501 Y19.100 E84.9775 F3600
G1 X39.400 Y9.201 E85.4431 F3600
G1 X39.400 Y8.635 E85.4620 F3600
G1 X28.935 Y19.100 E85.9542 F3600
G1 X28.369 Y19.100 E85.9730 F3600
G1 X39.400 Y8.069 E86.4919 F3600
G1 X39.400 Y7.503 E86.5107 F3600
G1 X27.803 Y19.100 E87.0562 F3600
G1 X27.238 Y19.100 E87.0750 F3600
G1 X39.400 Y6.938 E87.6470 F3600
G1 X39.400 Y6.372 E87.6659 F3600
G1 X26.672 Y19.100 E88.2645 F3600
G1 X26.106 Y19.100 E88.2834 F3600
G1 X39.400 Y5.806 E88.9087 F3600
G1 X39.400 Y5.241 E88.9275 F3600
G1 X25.541 Y19.100 E89.5794 F3600
G1 X24.975 Y19.100 E89.5982 F3600
G1 X39.400 Y4.675 E90.2767 F3600
G1 X39.400 Y4.109 E90.2955 F3600
G1 X24.409 Y19.100 E91.0006 F3600
G1 X23.844 Y19.100 E91.0194 F3600
G1 X39.400 Y3.544 E91.7512 F3600
G1 X39.400 Y2.978 E91.7700 F3600
G1 X23.278 Y19.100 E92.5283 F3600
G1 X22.712 Y19.100 E92.5471 F3600
G1 X39.400 Y2.412 E93.3321 F3600
G1 X39.400 Y1.847 E93.3509 F3600
G1 X22.147 Y19.100 E94.1624 F3600
G1 X21.581 Y19.100 E94.1812 F3600
G1 X39.400 Y1.281 E95.0194 F3600
G1 X39.400 Y0.715 E95.0382 F3600
G1 X21.015 Y19.100 E95.9030 F3600
G1 X20.450 Y19.100 E95.9218 F3600
G1 X38.950 Y0.600 E96.7920 F3600
G1 X38.384 Y0.600 E96.8108 F3600
G1 X19.884 Y19.100 E97.6810 F3600
G1 X19.318 Y19.100 E97.6998 F3600
G1 X37.818 Y0.600 E98.5700 F3600
G1 X37.252 Y0.600 E98.5888 F3600
G1 X18.752 Y19.100 E99.4590 F3600
G1 X18.187 Y19.100 E99.4778 F3600
G1 X36.687 Y0.600 E100.3480 F3600
G1 X36.121 Y0.600 E100.3668 F3600
G1 X17.621 Y19.100 E101.2370 F3600
G1 X17.055 Y19.100 E101.2558 F3600
G1 X35.555 Y0.600 E102.1259 F3600
G1 X34.990 Y0.600 E102.1448 F3600
G1 X16.490 Y19.100 E103.0149 F3600
G1 X15.924 Y19.100 E103.0338 F3600
G1 X34.424 Y0.600 E103.9039 F3600
G1 X33.858 Y0.600 E103.9228 F3600
G1 X15.358 Y19.100 E104.7929 F3600
G1 X14.793 Y19.100 E104.8118 F3600
G1 X33.293 Y0.600 E105.6819 F3600
G1 X32.727 Y0.600 E105.7008 F3600
G1 X14.227 Y19.100 E106.5709 F3600
G1 X13.661 Y19.100 E106.5898 F3600
G1 X32.161 Y0.600 E107.4599 F3600
G1 X31.596 Y0.600 E107.4788 F3600
G1 X13.096 Y19.100 E108.3489 F3600
G1 X12.530 Y19.100 E108.3678 F3600
G1 X31.030 Y0.600 E109.2379 F3600
G1 X30.464 Y0.600 E109.2567 F3600
G1 X11.964 Y19.100 E110.1269 F3600
G1 X11.399 Y19.100 E110.1457 F3600
G1 X29.899 Y0.600 E111.0159 F3600
G1 X29.333 Y0.600 E111.0347 F3600
G1 X10.833 Y19.100 E111.9049 F3600
G1 X10.267 Y19.100 E111.9237 F3600
G1 X28.767 Y0.600 E112.7939 F3600
G1 X28.202 Y0.600 E112.8127 F3600
G1 X9.702 Y19.100 E113.6829 F3600
G1 X9.136 Y19.100 E113.7017 F3600
G1 X27.636 Y0.600 E114.5719 F3600
G1 X27.070 Y0.600 E114.5907 F3600
G1 X8.570 Y19.100 E115.4609 F3600
G1 X8.004 Y19.100 E115.4797 F3600
G1 X26.504 Y0.600 E116.3499 F3600
G1 X25.939 Y0.600 E116.3687 F3600
G1 X7.439 Y19.100 E117.2389 F3600
G1 X6.873 Y19.100 E117.2577 F3600
G1 X25.373 Y0.600 E118.1279 F3600
G1 X24.807 Y0.600 E118.1467 F3600
G1 X6.307 Y19.100 E119.0169 F3600
G1 X5.742 Y19.100 E119.0357 F3600
G1 X24.242 Y0.600 E119.9059 F3600
G1 X23.676 Y0.600 E119.9247 F3600
G1 X5.176 Y19.100 E120.7949 F3600
G1 X4.610 Y19.100 E120.8137 F3600
G1 X23.110 Y0.600 E121.6839 F3600
G1 X22.545 Y0.600 E121.7027 F3600
G1 X4.045 Y19.100 E122.5729 F3600
G1 X3.479 Y19.100 E122.5917 F3600
G1 X21.979 Y0.600 E123.4619 F3600
G1 X21.413 Y0.600 E123.4807 F3600
G1 X2.913 Y19.100 E124.3509 F3600
G1 X2.348 Y19.100 E124.3697 F3600
G1 X20.848 Y0.600 E125.2399 F3600
G1 X20.282 Y0.600 E125.2587 F3600
G1 X1.782 Y19.100 E126.1289 F3600
G1 X1.216 Y19.100 E126.1477 F3600
G1 X19.716 Y0.600 E127.0179 F3600
G1 X19.151 Y0.600 E127.0367 F3600
G1 X0.651 Y19.100 E127.9069 F3600
G1 X0.600 Y18.585 E127.9241 F3600
G1 X18.585 Y0.600 E128.7701 F3600
G1 X18.019 Y0.600 E128.7889 F3600
G1 X0.600 Y18.019 E129.6082 F3600
G1 X0.600 Y17.453 E129.6270 F3600
G1 X17.453 Y0.600 E130.4198 F3600
G1 X16.888 Y0.600 E130.4386 F3600
G1 X0.600 Y16.888 E131.2047 F3600
G1 X0.600 Y16.322 E131.2235 F3600
G1 X16.322 Y0.600 E131.9631 F3600
G1 X15.756 Y0.600 E131.9819 F3600
G1 X0.600 Y15.756 E132.6948 F3600
G1 X0.600 Y15.191 E132.7136 F3600
G1 X15.191 Y0.600 E133.3999 F3600
G1 X14.625 Y0.600 E133.4187 F3600
G1 X0.600 Y14.625 E134.0784 F3600
G1 X0.600 Y14.059 E134.0972 F3600
G1 X14.059 Y0.600 E134.7303 F3600
G1 X13.494 Y0.600 E134.7491 F3600
G1 X0.600 Y13.494 E135.3556 F3600
G1 X0.600 Y12.928 E135.3744 F3600
G1 X12.928 Y0.600 E135.9543 F3600
G1 X12.362 Y0.600 E135.9731 F3600
G1 X0.600 Y12.362 E136.5264 F3600
G1 X0.600 Y11.797 E136.5452 F3600
G1 X11.797 Y0.600 E137.0718 F3600
G1 X11.231 Y0.600 E137.0907 F3600
G1 X0.600 Y11.231 E137.5907 F3600
G1 X0.600 Y10.665 E137.6095 F3600
G1 X10.665 Y0.600 E138.0830 F3600
G1 X10.100 Y0.600 E138.1018 F3600
G1 X0.600 Y10.100 E138.5486 F3600
G1 X0.600 Y9.534 E138.5674 F3600
G1 X9.534 Y0.600 E138.9876 F3600
G1 X8.968 Y0.600 E139.0065 F3600
G1 X0.600 Y8.968 E139.4001 F3600
G1 X0.600 Y8.403 E139.4189 F3600
G1 X8.403 Y0.600 E139.7859 F3600
G1 X7.837 Y0.600 E139.8047 F3600
G1 X0.600 Y7.837 E140.1451 F3600
G1 X0.600 Y7.271 E140.1639 F3600
G1 X7.271 Y0.600 E140.4777 F3600
G1 X6.705 Y0.600 E140.4965 F3600
G1 X0.600 Y6.705 E140.7837 F3600
G1 X0.600 Y6.140 E140.8025 F3600
G1 X6.140 Y0.600 E141.0631 F3600
G1 X5.574 Y0.600 E141.0819 F3600
G1 X0.600 Y5.574 E141.3159 F3600
G1 X0.600 Y5.008 E141.3347 F3600
G1 X5.008 Y0.600 E141.5421 F3600
G1 X4.443 Y0.600 E141.5609 F3600
G1 X0.600 Y4.443 E141.7416 F3600
G1 X0.600 Y3.877 E141.7604 F3600
G1 X3.877 Y0.600 E141.9146 F3600
G1 X3.311 Y0.600 E141.9334 F3600
G1 X0.600 Y3.311 E142.0609 F3600
G1 X0.600 Y2.746 E142.0797 F3600
G1 X2.746 Y0.600 E142.1807 F3600
G1 X2.180 Y0.600 E142.1995 F3600
G1 X0.600 Y2.180 E142.2738 F3600
G1 X0.600 Y1.614 E142.2926 F3600
G1 X1.614 Y0.600 E142.3403 F3600
G1 X1.049 Y0.600 E142.3591 F3600
G1 X0.600 Y1.049 E142.3802 F3600
; --- layer 3/100 z=0.600 ---
;LAYER_CHANGE
;Z:0.600
G1 Z0.600 F7200
; FEATURE: Outer wall
G1 E140.8802 F7200
G0 X0.000 Y19.500 F7200
G1 E142.3802 F7200
G1 X40.000 Y19.500 E143.7106 F3600
G1 X40.000 Y0.000 E144.3592 F3600
G1 X0.000 Y0.000 E145.6896 F3600
G1 X0.000 Y19.500 E146.3382 F3600
; FEATURE: Inner wall
G1 E144.8382 F7200
G0 X0.400 Y19.100 F7200
G1 E146.3382 F7200
G1 X39.600 Y19.100 E147.6420 F3600
G1 X39.600 Y0.400 E148.2640 F3600
G1 X0.400 Y0.400 E149.5678 F3600
G1 X0.400 Y19.100 E150.1897 F3600
; FEATURE: Internal solid infill
G0 X39.117 Y0.600 F7200
G1 X39.400 Y0.883 E150.2030 F3600
G1 X39.400 Y1.449 E150.2218 F3600
G1 X38.551 Y0.600 E150.2617 F3600
G1 X37.986 Y0.600 E150.2806 F3600
G1 X39.400 Y2.014 E150.3471 F3600
G1 X39.400 Y2.580 E150.3659 F3600
G1 X37.420 Y0.600 E150.4590 F3600
G1 X36.854 Y0.600 E150.4778 F3600
G1 X39.400 Y3.146 E150.5976 F3600
G1 X39.400 Y3.711 E150.6164 F3600
G1 X36.289 Y0.600 E150.7627 F3600
G1 X35.723 Y0.600 E150.7815 F3600
G1 X39.400 Y4.277 E150.9545 F3600
G1 X39.400 Y4.843 E150.9733 F3600
G1 X35.157 Y0.600 E151.1729 F3600
G1 X34.592 Y0.600 E151.1917 F3600
G1 X39.400 Y5.408 E151.4179 F3600
G1 X39.400 Y5.974 E151.4367 F3600
G1 X34.026 Y0.600 E151.6895 F3600
G1 X33.460 Y0.600 E151.7083 F3600
G1 X39.400 Y6.540 E151.9877 F3600
G1 X39.400 Y7.105 E152.0065 F3600
G1 X32.895 Y0.600 E152.3125 F3600
G1 X32.329 Y0.600 E152.3313 F3600
G1 X39.400 Y7.671 E152.6639 F3600
G1 X39.400 Y8.237 E152.6827 F3600
G1 X31.763 Y0.600 E153.0419 F3600
G1 X31.198 Y0.600 E153.0607 F3600
G1 X39.400 Y8.802 E153.4465 F3600
G1 X39.400 Y9.368 E153.4653 F3600
G1 X30.632 Y0.600 E153.8778 F3600
G1 X30.066 Y0.600 E153.8966 F3600
G1 X39.400 Y9.934 E154.3356 F3600
G1 X39.400 Y10.499 E154.3544 F3600
G1 X29.501 Y0.600 E154.8201 F3600
