; Generated by 3DPrintForge native slicer
; Layers: 100, layer height: 0.2 mm
; Material: PLA, nozzle 215C, bed 60C
; estimated_time: 0
M140 S60
M104 S215
G28 ; home
M190 S60
M109 S215
G92 E0
G90
M82
M107
; --- prime line ---
G1 Z0.200 F7200
G1 X20 Y20 F7200
G1 X80 Y20 E1.9956 F1200
G92 E0
; --- layer 1/100 z=0.200 ---
;LAYER_CHANGE
;Z:0.200
G1 Z0.200 F7200
; FEATURE: Skirt
G1 E-1.5000 F7200
G0 X43.000 Y-3.000 F7200
G1 E0.0000 F7200
G1 X-3.000 Y-3.000 E1.5300 F1200
G1 X-3.000 Y4.194 E1.7692 F1200
G1 X43.000 Y4.200 E3.2992 F1200
G1 X43.000 Y-3.000 E3.5387 F1200
; FEATURE: Outer wall
G1 E2.0387 F7200
G0 X40.000 Y1.200 F7200
G1 E3.5387 F7200
G1 X40.000 Y0.000 E3.5786 F1200
G1 X0.000 Y0.000 E4.9090 F1200
G1 X0.000 Y1.194 E4.9487 F1200
G1 X40.000 Y1.200 E6.2791 F1200
; FEATURE: Inner wall
G1 E4.7791 F7200
G0 X39.600 Y0.800 F7200
G1 E6.2791 F7200
G1 X39.600 Y0.400 E6.2924 F1200
G1 X0.400 Y0.400 E7.5962 F1200
G1 X0.400 Y0.794 E7.6093 F1200
G1 X39.600 Y0.800 E8.9131 F1200
; --- layer 2/100 z=0.400 ---
;LAYER_CHANGE
;Z:0.400
G1 Z0.400 F7200
M106 S255
; FEATURE: Outer wall
G1 E7.4131 F7200
G0 X0.000 Y1.200 F7200
G1 E8.9131 F7200
G1 X40.000 Y1.200 E10.2435 F3600
G1 X40.000 Y0.000 E10.2834 F3600
G1 X0.000 Y0.000 E11.6138 F3600
G1 X0.000 Y1.200 E11.6538 F3600
; FEATURE: Inner wall
G1 E10.1538 F7200
G0 X0.400 Y0.800 F7200
G1 E11.6538 F7200
G1 X39.600 Y0.800 E12.9575 F3600
G1 X39.600 Y0.400 E12.9709 F3600
G1 X0.400 Y0.400 E14.2747 F3600
G1 X0.400 Y0.800 E14.2880 F3600
; --- layer 3/100 z=0.600 ---
;LAYER_CHANGE
;Z:0.600
G1 Z0.600 F7200
; FEATURE: Outer wall
G1 E12.7880 F7200
G0 X0.000 Y1.200 F7200
G1 E14.2880 F7200
G1 X40.000 Y1.200 E15.6184 F3600
G1 X40.000 Y0.000 E15.6583 F3600
G1 X0.000 Y0.000 E16.9887 F3600
G1 X0.000 Y1.200 E17.0286 F3600
; FEATURE: Inner wall
G1 E15.5286 F7200
G0 X0.400 Y0.800 F7200
G1 E17.0286 F7200
G1 X39.600 Y0.800 E18.3324 F3600
G1 X39.600 Y0.400 E18.3457 F3600
G1 X0.400 Y0.400 E19.6495 F3600
G1 X0.400 Y0.800 E19.6628 F3600
; --- layer 4/100 z=0.800 ---
;LAYER_CHANGE
;Z:0.800
G1 Z0.800 F7200
; FEATURE: Outer wall
G1 E18.1628 F7200
G0 X0.000 Y1.200 F7200
G1 E19.6628 F7200
G1 X40.000 Y1.200 E20.9932 F3600
G1 X40.000 Y0.000 E21.0331 F3600
G1 X0.000 Y0.000 E22.3635 F3600
G1 X0.000 Y1.200 E22.4034 F3600
; FEATURE: Inner wall
G1 E20.9034 F7200
G0 X0.400 Y0.800 F7200
G1 E22.4034 F7200
G1 X39.600 Y0.800 E23.7072 F3600
G1 X39.600 Y0.400 E23.7205 F3600
G1 X0.400 Y0.400 E25.0243 F3600
G1 X0.400 Y0.800 E25.0376 F3600
; --- layer 5/100 z=1.000 ---
;LAYER_CHANGE
;Z:1.000
G1 Z1.000 F7200
; FEATURE: Outer wall
G1 E23.5376 F7200
G0 X0.000 Y1.200 F7200
G1 E25.0376 F7200
G1 X40.000 Y1.200 E26.3680 F3600
G1 X40.000 Y0.000 E26.4079 F3600
G1 X0.000 Y0.000 E27.7384 F3600
G1 X0.000 Y1.200 E27.7783 F3600
; FEATURE: Inner wall
G1 E26.2783 F7200
G0 X0.400 Y0.800 F7200
G1 E27.7783 F7200
G1 X39.600 Y0.800 E29.0821 F3600
G1 X39.600 Y0.400 E29.0954 F3600
G1 X0.400 Y0.400 E30.3992 F3600
G1 X0.400 Y0.800 E30.4125 F3600
; --- layer 6/100 z=1.200 ---
;LAYER_CHANGE
;Z:1.200
G1 Z1.200 F7200
; FEATURE: Outer wall
G1 E28.9125 F7200
G0 X0.000 Y1.200 F7200
G1 E30.4125 F7200
G1 X40.000 Y1.200 E31.7429 F3600
G1 X40.000 Y0.000 E31.7828 F3600
G1 X0.000 Y0.000 E33.1132 F3600
G1 X0.000 Y1.200 E33.1531 F3600
; FEATURE: Inner wall
G1 E31.6531 F7200
G0 X0.400 Y0.800 F7200
G1 E33.1531 F7200
G1 X39.600 Y0.800 E34.4569 F3600
G1 X39.600 Y0.400 E34.4702 F3600
G1 X0.400 Y0.400 E35.7740 F3600
G1 X0.400 Y0.800 E35.7873 F3600
; --- layer 7/100 z=1.400 ---
;LAYER_CHANGE
;Z:1.400
G1 Z1.400 F7200
; FEATURE: Outer wall
G1 E34.2873 F7200
G0 X0.000 Y1.200 F7200
G1 E35.7873 F7200
G1 X40.000 Y1.200 E37.1177 F3600
G1 X40.000 Y0.000 E37.1576 F3600
G1 X0.000 Y0.000 E38.4880 F3600
G1 X0.000 Y1.200 E38.5279 F3600
; FEATURE: Inner wall
G1 E37.0279 F7200
G0 X0.400 Y0.800 F7200
G1 E38.5279 F7200
G1 X39.600 Y0.800 E39.8317 F3600
G1 X39.600 Y0.400 E39.8450 F3600
G1 X0.400 Y0.400 E41.1488 F3600
G1 X0.400 Y0.800 E41.1621 F3600
; --- layer 8/100 z=1.600 ---
;LAYER_CHANGE
;Z:1.600
G1 Z1.600 F7200
; FEATURE: Outer wall
G1 E39.6621 F7200
G0 X0.000 Y1.200 F7200
G1 E41.1621 F7200
G1 X40.000 Y1.200 E42.4925 F3600
G1 X40.000 Y0.000 E42.5325 F3600
G1 X0.000 Y0.000 E43.8629 F3600
G1 X0.000 Y1.200 E43.9028 F3600
; FEATURE: Inner wall
G1 E42.4028 F7200
G0 X0.400 Y0.800 F7200
G1 E43.9028 F7200
G1 X39.600 Y0.800 E45.2066 F3600
G1 X39.600 Y0.400 E45.2199 F3600
G1 X0.400 Y0.400 E46.5237 F3600
G1 X0.400 Y0.800 E46.5370 F3600
; --- layer 9/100 z=1.800 ---
;LAYER_CHANGE
;Z:1.800
G1 Z1.800 F7200
; FEATURE: Outer wall
G1 E45.0370 F7200
G0 X0.000 Y1.200 F7200
G1 E46.5370 F7200
G1 X40.000 Y1.200 E47.8674 F3600
G1 X40.000 Y0.000 E47.9073 F3600
G1 X0.000 Y0.000 E49.2377 F3600
G1 X0.000 Y1.200 E49.2776 F3600
; FEATURE: Inner wall
G1 E47.7776 F7200
G0 X0.400 Y0.800 F7200
G1 E49.2776 F7200
G1 X39.600 Y0.800 E50.5814 F3600
G1 X39.600 Y0.400 E50.5947 F3600
G1 X0.400 Y0.400 E51.8985 F3600
G1 X0.400 Y0.800 E51.9118 F3600
; --- layer 10/100 z=2.000 ---
;LAYER_CHANGE
;Z:2.000
G1 Z2.000 F7200
; FEATURE: Outer wall
G1 E50.4118 F7200
G0 X0.000 Y1.200 F7200
G1 E51.9118 F7200
G1 X40.000 Y1.200 E53.2422 F3600
G1 X40.000 Y0.000 E53.2821 F3600
G1 X0.000 Y0.000 E54.6125 F3600
G1 X0.000 Y1.200 E54.6525 F3600
; FEATURE: Inner wall
G1 E53.1525 F7200
G0 X0.400 Y0.800 F7200
G1 E54.6525 F7200
G1 X39.600 Y0.800 E55.9563 F3600
G1 X39.600 Y0.400 E55.9696 F3600
G1 X0.400 Y0.400 E57.2734 F3600
G1 X0.400 Y0.800 E57.2867 F3600
; --- layer 11/100 z=2.200 ---
;LAYER_CHANGE
;Z:2.200
G1 Z2.200 F7200
; FEATURE: Outer wall
G1 E55.7867 F7200
G0 X0.000 Y1.200 F7200
G1 E57.2867 F7200
G1 X40.000 Y1.200 E58.6171 F3600
G1 X40.000 Y0.000 E58.6570 F3600
G1 X0.000 Y0.000 E59.9874 F3600
G1 X0.000 Y1.200 E60.0273 F3600
; FEATURE: Inner wall
G1 E58.5273 F7200
G0 X0.400 Y0.800 F7200
G1 E60.0273 F7200
G1 X39.600 Y0.800 E61.3311 F3600
G1 X39.600 Y0.400 E61.3444 F3600
G1 X0.400 Y0.400 E62.6482 F3600
G1 X0.400 Y0.800 E62.6615 F3600
; --- layer 12/100 z=2.400 ---
;LAYER_CHANGE
;Z:2.400
G1 Z2.400 F7200
; FEATURE: Outer wall
G1 E61.1615 F7200
G0 X0.000 Y1.200 F7200
G1 E62.6615 F7200
G1 X40.000 Y1.200 E63.9919 F3600
G1 X40.000 Y0.000 E64.0318 F3600
G1 X0.000 Y0.000 E65.3622 F3600
G1 X0.000 Y1.200 E65.4021 F3600
; FEATURE: Inner wall
G1 E63.9021 F7200
G0 X0.400 Y0.800 F7200
G1 E65.4021 F7200
G1 X39.600 Y0.800 E66.7059 F3600
G1 X39.600 Y0.400 E66.7192 F3600
G1 X0.400 Y0.400 E68.0230 F3600
G1 X0.400 Y0.800 E68.0363 F3600
; --- layer 13/100 z=2.600 ---
;LAYER_CHANGE
;Z:2.600
G1 Z2.600 F7200
; FEATURE: Outer wall
G1 E66.5363 F7200
G0 X0.000 Y1.200 F7200
G1 E68.0363 F7200
G1 X40.000 Y1.200 E69.3667 F3600
G1 X40.000 Y0.000 E69.4067 F3600
G1 X0.000 Y0.000 E70.7371 F3600
G1 X0.000 Y1.200 E70.7770 F3600
; FEATURE: Inner wall
G1 E69.2770 F7200
G0 X0.400 Y0.800 F7200
G1 E70.7770 F7200
G1 X39.600 Y0.800 E72.0808 F3600
G1 X39.600 Y0.400 E72.0941 F3600
G1 X0.400 Y0.400 E73.3979 F3600
G1 X0.400 Y0.800 E73.4112 F3600
; --- layer 14/100 z=2.800 ---
;LAYER_CHANGE
;Z:2.800
G1 Z2.800 F7200
; FEATURE: Outer wall
G1 E71.9112 F7200
G0 X0.000 Y1.200 F7200
G1 E73.4112 F7200
G1 X40.000 Y1.200 E74.7416 F3600
G1 X40.000 Y0.000 E74.7815 F3600
G1 X0.000 Y0.000 E76.1119 F3600
G1 X0.000 Y1.200 E76.1518 F3600
; FEATURE: Inner wall
G1 E74.6518 F7200
G0 X0.400 Y0.800 F7200
G1 E76.1518 F7200
G1 X39.600 Y0.800 E77.4556 F3600
G1 X39.600 Y0.400 E77.4689 F3600
G1 X0.400 Y0.400 E78.7727 F3600
G1 X0.400 Y0.800 E78.7860 F3600
; --- layer 15/100 z=3.000 ---
;LAYER_CHANGE
;Z:3.000
G1 Z3.000 F7200
; FEATURE: Outer wall
G1 E77.2860 F7200
G0 X0.000 Y1.200 F7200
G1 E78.7860 F7200
G1 X40.000 Y1.200 E80.1164 F3600
G1 X40.000 Y0.000 E80.1563 F3600
G1 X0.000 Y0.000 E81.4867 F3600
G1 X0.000 Y1.200 E81.5266 F3600
; FEATURE: Inner wall
G1 E80.0266 F7200
G0 X0.400 Y0.800 F7200
G1 E81.5266 F7200
G1 X39.600 Y0.800 E82.8304 F3600
G1 X39.600 Y0.400 E82.8437 F3600
G1 X0.400 Y0.400 E84.1475 F3600
G1 X0.400 Y0.800 E84.1608 F3600
; --- layer 16/100 z=3.200 ---
;LAYER_CHANGE
;Z:3.200
G1 Z3.200 F7200
; FEATURE: Outer wall
G1 E82.6608 F7200
G0 X0.000 Y1.200 F7200
G1 E84.1608 F7200
G1 X40.000 Y1.200 E85.4913 F3600
G1 X40.000 Y0.000 E85.5312 F3600
G1 X0.000 Y0.000 E86.8616 F3600
G1 X0.000 Y1.200 E86.9015 F3600
; FEATURE: Inner wall
G1 E85.4015 F7200
G0 X0.400 Y0.800 F7200
G1 E86.9015 F7200
G1 X39.600 Y0.800 E88.2053 F3600
G1 X39.600 Y0.400 E88.2186 F3600
G1 X0.400 Y0.400 E89.5224 F3600
G1 X0.400 Y0.800 E89.5357 F3600
; --- layer 17/100 z=3.400 ---
;LAYER_CHANGE
;Z:3.400
G1 Z3.400 F7200
; FEATURE: Outer wall
G1 E88.0357 F7200
G0 X0.000 Y1.200 F7200
G1 E89.5357 F7200
G1 X40.000 Y1.200 E90.8661 F3600
G1 X40.000 Y0.000 E90.9060 F3600
G1 X0.000 Y0.000 E92.2364 F3600
G1 X0.000 Y1.200 E92.2763 F3600
; FEATURE: Inner wall
G1 E90.7763 F7200
G0 X0.400 Y0.800 F7200
G1 E92.2763 F7200
G1 X39.600 Y0.800 E93.5801 F3600
G1 X39.600 Y0.400 E93.5934 F3600
G1 X0.400 Y0.400 E94.8972 F3600
G1 X0.400 Y0.800 E94.9105 F3600
; --- layer 18/100 z=3.600 ---
;LAYER_CHANGE
;Z:3.600
G1 Z3.600 F7200
; FEATURE: Outer wall
G1 E93.4105 F7200
G0 X0.000 Y1.200 F7200
G1 E94.9105 F7200
G1 X40.000 Y1.200 E96.2409 F3600
G1 X40.000 Y0.000 E96.2808 F3600
G1 X0.000 Y0.000 E97.6112 F3600
G1 X0.000 Y1.200 E97.6512 F3600
; FEATURE: Inner wall
G1 E96.1512 F7200
G0 X0.400 Y0.800 F7200
G1 E97.6512 F7200
G1 X39.600 Y0.800 E98.9550 F3600
G1 X39.600 Y0.400 E98.9683 F3600
G1 X0.400 Y0.400 E100.2721 F3600
G1 X0.400 Y0.800 E100.2854 F3600
; --- layer 19/100 z=3.800 ---
;LAYER_CHANGE
;Z:3.800
G1 Z3.800 F7200
; FEATURE: Outer wall
G1 E98.7854 F7200
G0 X0.000 Y1.200 F7200
G1 E100.2854 F7200
G1 X40.000 Y1.200 E101.6158 F3600
G1 X40.000 Y0.000 E101.6557 F3600
G1 X0.000 Y0.000 E102.9861 F3600
G1 X0.000 Y1.200 E103.0260 F3600
; FEATURE: Inner wall
G1 E101.5260 F7200
G0 X0.400 Y0.800 F7200
G1 E103.0260 F7200
G1 X39.600 Y0.800 E104.3298 F3600
G1 X39.600 Y0.400 E104.3431 F3600
G1 X0.400 Y0.400 E105.6469 F3600
G1 X0.400 Y0.800 E105.6602 F3600
; --- layer 20/100 z=4.000 ---
;LAYER_CHANGE
;Z:4.000
G1 Z4.000 F7200
; FEATURE: Outer wall
G1 E104.1602 F7200
G0 X0.000 Y1.200 F7200
G1 E105.6602 F7200
G1 X40.000 Y1.200 E106.9906 F3600
G1 X40.000 Y0.000 E107.0305 F3600
G1 X0.000 Y0.000 E108.3609 F3600
G1 X0.000 Y1.200 E108.4008 F3600
; FEATURE: Inner wall
G1 E106.9008 F7200
G0 X0.400 Y0.800 F7200
G1 E108.4008 F7200
G1 X39.600 Y0.800 E109.7046 F3600
G1 X39.600 Y0.400 E109.7179 F3600
G1 X0.400 Y0.400 E111.0217 F3600
G1 X0.400 Y0.800 E111.0350 F3600
; --- layer 21/100 z=4.200 ---
;LAYER_CHANGE
;Z:4.200
G1 Z4.200 F7200
; FEATURE: Outer wall
G1 E109.5350 F7200
G0 X0.000 Y1.200 F7200
G1 E111.0350 F7200
G1 X40.000 Y1.200 E112.3654 F3600
G1 X40.000 Y0.000 E112.4054 F3600
G1 X0.000 Y0.000 E113.7358 F3600
G1 X0.000 Y1.200 E113.7757 F3600
; FEATURE: Inner wall
G1 E112.2757 F7200
G0 X0.400 Y0.800 F7200
G1 E113.7757 F7200
G1 X39.600 Y0.800 E115.0795 F3600
G1 X39.600 Y0.400 E115.0928 F3600
G1 X0.400 Y0.400 E116.3966 F3600
G1 X0.400 Y0.800 E116.4099 F3600
; --- layer 22/100 z=4.400 ---
;LAYER_CHANGE
;Z:4.400
G1 Z4.400 F7200
; FEATURE: Outer wall
G1 E114.9099 F7200
G0 X0.000 Y1.200 F7200
G1 E116.4099 F7200
G1 X40.000 Y1.200 E117.7403 F3600
G1 X40.000 Y0.000 E117.7802 F3600
G1 X0.000 Y0.000 E119.1106 F3600
G1 X0.000 Y1.200 E119.1505 F3600
; FEATURE: Inner wall
G1 E117.6505 F7200
G0 X0.400 Y0.800 F7200
G1 E119.1505 F7200
G1 X39.600 Y0.800 E120.4543 F3600
G1 X39.600 Y0.400 E120.4676 F3600
G1 X0.400 Y0.400 E121.7714 F3600
G1 X0.400 Y0.800 E121.7847 F3600
; --- layer 23/100 z=4.600 ---
;LAYER_CHANGE
;Z:4.600
G1 Z4.600 F7200
; FEATURE: Outer wall
G1 E120.2847 F7200
G0 X0.000 Y1.200 F7200
G1 E121.7847 F7200
G1 X40.000 Y1.200 E123.1151 F3600
G1 X40.000 Y0.000 E123.1550 F3600
G1 X0.000 Y0.000 E124.4854 F3600
G1 X0.000 Y1.200 E124.5253 F3600
; FEATURE: Inner wall
G1 E123.0253 F7200
G0 X0.400 Y0.800 F7200
G1 E124.5253 F7200
G1 X39.600 Y0.800 E125.8291 F3600
G1 X39.600 Y0.400 E125.8424 F3600
G1 X0.400 Y0.400 E127.1462 F3600
G1 X0.400 Y0.800 E127.1595 F3600
; --- layer 24/100 z=4.800 ---
;LAYER_CHANGE
;Z:4.800
G1 Z4.800 F7200
; FEATURE: Outer wall
G1 E125.6595 F7200
G0 X0.000 Y1.200 F7200
G1 E127.1595 F7200
G1 X40.000 Y1.200 E128.4900 F3600
G1 X40.000 Y0.000 E128.5299 F3600
G1 X0.000 Y0.000 E129.8603 F3600
G1 X0.000 Y1.200 E129.9002 F3600
; FEATURE: Inner wall
G1 E128.4002 F7200
G0 X0.400 Y0.800 F7200
G1 E129.9002 F7200
G1 X39.600 Y0.800 E131.2040 F3600
G1 X39.600 Y0.400 E131.2173 F3600
G1 X0.400 Y0.400 E132.5211 F3600
G1 X0.400 Y0.800 E132.5344 F3600
; --- layer 25/100 z=5.000 ---
;LAYER_CHANGE
;Z:5.000
G1 Z5.000 F7200
; FEATURE: Outer wall
G1 E131.0344 F7200
G0 X0.000 Y1.200 F7200
G1 E132.5344 F7200
G1 X40.000 Y1.200 E133.8648 F3600
G1 X40.000 Y0.000 E133.9047 F3600
G1 X0.000 Y0.000 E135.2351 F3600
G1 X0.000 Y1.200 E135.2750 F3600
; FEATURE: Inner wall
G1 E133.7750 F7200
G0 X0.400 Y0.800 F7200
G1 E135.2750 F7200
G1 X39.600 Y0.800 E136.5788 F3600
G1 X39.600 Y0.400 E136.5921 F3600
G1 X0.400 Y0.400 E137.8959 F3600
G1 X0.400 Y0.800 E137.9092 F3600
; --- layer 26/100 z=5.200 ---
;LAYER_CHANGE
;Z:5.200
G1 Z5.200 F7200
; FEATURE: Outer wall
G1 E136.4092 F7200
G0 X0.000 Y1.200 F7200
G1 E137.9092 F7200
G1 X40.000 Y1.200 E139.2396 F3600
G1 X40.000 Y0.000 E139.2795 F3600
G1 X0.000 Y0.000 E140.6099 F3600
G1 X0.000 Y1.200 E140.6499 F3600
; FEATURE: Inner wall
G1 E139.1499 F7200
G0 X0.400 Y0.800 F7200
G1 E140.6499 F7200
G1 X39.600 Y0.800 E141.9537 F3600
G1 X39.600 Y0.400 E141.9670 F3600
G1 X0.400 Y0.400 E143.2708 F3600
G1 X0.400 Y0.800 E143.2841 F3600
; --- layer 27/100 z=5.400 ---
;LAYER_CHANGE
;Z:5.400
G1 Z5.400 F7200
; FEATURE: Outer wall
G1 E141.7841 F7200
G0 X0.000 Y1.200 F7200
G1 E143.2841 F7200
G1 X40.000 Y1.200 E144.6145 F3600
G1 X40.000 Y0.000 E144.6544 F3600
G1 X0.000 Y0.000 E145.9848 F3600
G1 X0.000 Y1.200 E146.0247 F3600
; FEATURE: Inner wall
G1 E144.5247 F7200
G0 X0.400 Y0.800 F7200
G1 E146.0247 F7200
G1 X39.600 Y0.800 E147.3285 F3600
G1 X39.600 Y0.400 E147.3418 F3600
G1 X0.400 Y0.400 E148.6456 F3600
G1 X0.400 Y0.800 E148.6589 F3600
; --- layer 28/100 z=5.600 ---
;LAYER_CHANGE
;Z:5.600
G1 Z5.600 F7200
; FEATURE: Outer wall
G1 E147.1589 F7200
G0 X0.000 Y1.200 F7200
G1 E148.6589 F7200
G1 X40.000 Y1.200 E149.9893 F3600
G1 X40.000 Y0.000 E150.0292 F3600
G1 X0.000 Y0.000 E151.3596 F3600
G1 X0.000 Y1.200 E151.3995 F3600
; FEATURE: Inner wall
G1 E149.8995 F7200
G0 X0.400 Y0.800 F7200
G1 E151.3995 F7200
G1 X39.600 Y0.800 E152.7033 F3600
G1 X39.600 Y0.400 E152.7166 F3600
G1 X0.400 Y0.400 E154.0204 F3600
G1 X0.400 Y0.800 E154.0337 F3600
; --- layer 29/100 z=5.800 ---
;LAYER_CHANGE
;Z:5.800
G1 Z5.800 F7200
; FEATURE: Outer wall
G1 E152.5337 F7200
G0 X0.000 Y1.200 F7200
G1 E154.0337 F7200
G1 X40.000 Y1.200 E155.3641 F3600
G1 X40.000 Y0.000 E155.4041 F3600
G1 X0.000 Y0.000 E156.7345 F3600
G1 X0.000 Y1.200 E156.7744 F3600
; FEATURE: Inner wall
G1 E155.2744 F7200
G0 X0.400 Y0.800 F7200
G1 E156.7744 F7200
G1 X39.600 Y0.800 E158.0782 F3600
G1 X39.600 Y0.400 E158.0915 F3600
G1 X0.400 Y0.400 E159.3953 F3600
G1 X0.400 Y0.800 E159.4086 F3600
; --- layer 30/100 z=6.000 ---
;LAYER_CHANGE
;Z:6.000
G1 Z6.000 F7200
; FEATURE: Outer wall
G1 E157.9086 F7200
G0 X0.000 Y1.200 F7200
G1 E159.4086 F7200
G1 X40.000 Y1.200 E160.7390 F3600
G1 X40.000 Y0.000 E160.7789 F3600
G1 X0.000 Y0.000 E162.1093 F3600
G1 X0.000 Y1.200 E162.1492 F3600
; FEATURE: Inner wall
G1 E160.6492 F7200
G0 X0.400 Y0.800 F7200
G1 E162.1492 F7200
G1 X39.600 Y0.800 E163.4530 F3600
G1 X39.600 Y0.400 E163.4663 F3600
G1 X0.400 Y0.400 E164.7701 F3600
G1 X0.400 Y0.800 E164.7834 F3600
; --- layer 31/100 z=6.200 ---
;LAYER_CHANGE
;Z:6.200
G1 Z6.200 F7200
; FEATURE: Outer wall
G1 E163.2834 F7200
G0 X0.000 Y1.200 F7200
G1 E164.7834 F7200
G1 X40.000 Y1.200 E166.1138 F3600
G1 X40.000 Y0.000 E166.1537 F3600
G1 X0.000 Y0.000 E167.4841 F3600
G1 X0.000 Y1.200 E167.5240 F3600
; FEATURE: Inner wall
G1 E166.0240 F7200
G0 X0.400 Y0.800 F7200
G1 E167.5240 F7200
G1 X39.600 Y0.800 E168.8278 F3600
G1 X39.600 Y0.400 E168.8412 F3600
G1 X0.400 Y0.400 E170.1449 F3600
G1 X0.400 Y0.800 E170.1583 F3600
; --- layer 32/100 z=6.400 ---
;LAYER_CHANGE
;Z:6.400
G1 Z6.400 F7200
; FEATURE: Outer wall
